;FLAVOR:Marlin
;TIME:1001
;Filament used: 0.601443m
;Layer height: 0.2
;MINX:124.22
;MINY:90.777
;MINZ:0.2
;MAXX:175.831
;MAXY:129.223
;MAXZ:6.8
;POSTPROCESSED
;Generated with Cura_SteamEngine 4.4.1
M140 S60
M105
M190 S60
M104 S200
M105
M109 S200
M82 ;absolute extrusion mode
M201 X500.00 Y500.00 Z100.00 E5000.00 ;Setup machine max acceleration
M203 X500.00 Y500.00 Z10.00 E50.00 ;Setup machine max feedrate
M204 P500.00 R1000.00 T500.00 ;Setup Print/Retract/Travel acceleration
M205 X8.00 Y8.00 Z0.40 E5.00 ;Setup Jerk
M220 S100 ;Reset Feedrate
M221 S100 ;Reset Flowrate

G28 ;Home

G92 E0 ;Reset Extruder
G1 Z2.0 F3000 ;Move Z Axis up
G1 X10.1 Y20 Z0.28 F5000.0 ;Move to start position
G1 X10.1 Y200.0 Z0.28 F1500.0 E15 ;Draw the first line
G1 X10.4 Y200.0 Z0.28 F5000.0 ;Move to side a little
G1 X10.4 Y20 Z0.28 F1500.0 E30 ;Draw the second line
G92 E0 ;Reset Extruder
G1 Z2.0 F3000 ;Move Z Axis up

G92 E0
G92 E0
G1 F1500 E-6.5
;LAYER_COUNT:34
;LAYER:0
M107
G0 F6000 X126.791 Y95.107 Z0.2
;TYPE:SKIRT
G1 F1500 E0
G1 F1200 X127.395 Y94.39 E0.03118
G1 X128.058 Y93.726 E0.06239
G1 X128.775 Y93.122 E0.09357
G1 X129.447 Y92.642 E0.12104
G1 X129.491 Y92.613 E0.12279
G1 X130.295 Y92.131 E0.15397
G1 X131.137 Y91.719 E0.18515
G1 X132.012 Y91.38 E0.21636
G1 X132.912 Y91.117 E0.24754
G1 X133.832 Y90.932 E0.27876
G1 X135.222 Y90.803 E0.32519
G1 X135.94 Y90.782 E0.34908
G1 X136.304 Y90.777 E0.36119
G1 X141.867 Y90.798 E0.54621
G1 X157.161 Y90.799 E1.05489
G1 X164.126 Y90.777 E1.28655
G1 X164.362 Y90.779 E1.2944
G1 X165.017 Y90.791 E1.31619
G1 X165.954 Y90.848 E1.34741
G1 X166.881 Y90.985 E1.37858
G1 X167.794 Y91.2 E1.40978
G1 X168.686 Y91.492 E1.44099
G1 X169.549 Y91.859 E1.47218
G1 X170.377 Y92.298 E1.50336
G1 X171.165 Y92.807 E1.53456
G1 X171.908 Y93.38 E1.56576
G1 X172.598 Y94.015 E1.59695
G1 X173.232 Y94.706 E1.62814
G1 X173.805 Y95.449 E1.65935
G1 X174.312 Y96.237 E1.69052
G1 X174.751 Y97.066 E1.72172
G1 X175.117 Y97.93 E1.75293
G1 X175.408 Y98.821 E1.7841
G1 X175.622 Y99.734 E1.81529
G1 X175.758 Y100.662 E1.84649
G1 X175.815 Y101.62 E1.8784
G1 X175.83 Y102.595 E1.91084
G1 X175.831 Y102.764 E1.91646
G1 X175.831 Y117.459 E2.40522
G1 X175.83 Y117.613 E2.41034
G1 X175.82 Y118.329 E2.43415
G1 X175.767 Y119.265 E2.46534
G1 X175.634 Y120.193 E2.49652
G1 X175.423 Y121.107 E2.52772
G1 X175.135 Y122 E2.55892
G1 X174.771 Y122.864 E2.59011
G1 X174.336 Y123.695 E2.6213
G1 X173.831 Y124.485 E2.65249
G1 X173.261 Y125.23 E2.68369
G1 X172.629 Y125.923 E2.71488
G1 X171.941 Y126.56 E2.74607
G1 X171.201 Y127.136 E2.77726
G1 X170.414 Y127.647 E2.80847
G1 X169.587 Y128.089 E2.83966
G1 X168.725 Y128.459 E2.87086
G1 X167.835 Y128.754 E2.90204
G1 X166.923 Y128.972 E2.93323
G1 X165.995 Y129.112 E2.96444
G1 X165.403 Y129.16 E2.9842
G1 X164.856 Y129.189 E3.00242
G1 X164.427 Y129.203 E3.01669
G1 X163.279 Y129.219 E3.05488
G1 X163.094 Y129.22 E3.06103
G1 X156.908 Y129.202 E3.26678
G1 X141.854 Y129.202 E3.76748
G1 X136.363 Y129.223 E3.95011
G1 X136.217 Y129.223 E3.95497
G1 X135.475 Y129.216 E3.97965
G1 X134.539 Y129.167 E4.01082
G1 X133.61 Y129.038 E4.04202
G1 X132.695 Y128.831 E4.07322
G1 X131.801 Y128.547 E4.10442
G1 X130.935 Y128.188 E4.1356
G1 X130.102 Y127.756 E4.16681
G1 X129.31 Y127.254 E4.198
G1 X128.826 Y126.899 E4.21796
G1 X128.691 Y126.794 E4.22365
G1 X127.976 Y126.187 E4.25484
G1 X127.315 Y125.522 E4.28603
G1 X126.713 Y124.802 E4.31724
G1 X126.175 Y124.034 E4.34843
G1 X125.828 Y123.453 E4.37094
G1 X125.718 Y123.255 E4.37847
G1 X125.298 Y122.417 E4.40965
G1 X124.836 Y121.199 E4.45298
G1 X124.764 Y120.969 E4.46099
G1 X124.523 Y120.063 E4.49217
G1 X124.308 Y118.692 E4.53833
G1 X124.272 Y118.301 E4.55139
G1 X124.228 Y117.482 E4.57867
G1 X124.222 Y117.135 E4.59021
G1 X124.22 Y116.944 E4.59657
G1 X124.221 Y103.304 E5.05023
G1 X124.222 Y103.148 E5.05542
G1 X124.232 Y102.446 E5.07877
G1 X124.295 Y101.422 E5.1129
G1 X124.326 Y101.135 E5.1225
G1 X124.466 Y100.207 E5.15371
G1 X124.746 Y99.088 E5.19208
G1 X124.816 Y98.86 E5.20001
G1 X125.13 Y97.976 E5.23121
G1 X125.517 Y97.121 E5.26243
G1 X126.082 Y96.134 E5.30025
G1 X126.25 Y95.873 E5.31058
G1 X126.791 Y95.107 E5.34177
G0 F6000 X127.118 Y95.338
G1 F1200 X127.713 Y94.635 E5.3724
G1 X128.366 Y93.987 E5.403
G1 X129.074 Y93.397 E5.43365
G1 X129.667 Y92.976 E5.45784
G1 X129.711 Y92.947 E5.45959
G1 X130.501 Y92.475 E5.4902
G1 X131.329 Y92.072 E5.52083
G1 X132.189 Y91.743 E5.55145
G1 X133.074 Y91.49 E5.58207
G1 X133.977 Y91.314 E5.61267
G1 X135.234 Y91.203 E5.65464
G1 X135.952 Y91.182 E5.67853
G1 X136.302 Y91.177 E5.69017
G1 X141.865 Y91.198 E5.8752
G1 X157.163 Y91.199 E6.38401
G1 X164.128 Y91.177 E6.61567
G1 X164.355 Y91.179 E6.62322
G1 X165.01 Y91.191 E6.64501
G1 X165.929 Y91.248 E6.67563
G1 X166.84 Y91.384 E6.70627
G1 X167.735 Y91.599 E6.73688
G1 X168.608 Y91.89 E6.76749
G1 X169.453 Y92.257 E6.79813
G1 X170.262 Y92.695 E6.82873
G1 X171.031 Y93.202 E6.85937
G1 X171.752 Y93.774 E6.88998
G1 X172.422 Y94.406 E6.92061
G1 X173.034 Y95.094 E6.95124
G1 X173.584 Y95.832 E6.98185
G1 X174.068 Y96.615 E7.01247
G1 X174.482 Y97.438 E7.04311
G1 X174.823 Y98.293 E7.07372
G1 X175.088 Y99.174 E7.10432
G1 X175.277 Y100.075 E7.13494
G1 X175.386 Y100.99 E7.16559
G1 X175.415 Y101.626 E7.18677
G1 X175.43 Y102.601 E7.2192
G1 X175.431 Y102.764 E7.22462
G1 X175.431 Y117.459 E7.71338
G1 X175.43 Y117.607 E7.7183
G1 X175.42 Y118.323 E7.74212
G1 X175.367 Y119.242 E7.77273
G1 X175.235 Y120.153 E7.80335
G1 X175.024 Y121.049 E7.83397
G1 X174.736 Y121.924 E7.8646
G1 X174.373 Y122.77 E7.89522
G1 X173.938 Y123.582 E7.92586
G1 X173.435 Y124.352 E7.95645
G1 X172.866 Y125.077 E7.98711
G1 X172.237 Y125.749 E8.01772
G1 X171.552 Y126.364 E8.04834
G1 X170.816 Y126.917 E8.07896
G1 X170.035 Y127.404 E8.10957
G1 X169.215 Y127.822 E8.14018
G1 X168.361 Y128.166 E8.1708
G1 X167.481 Y128.436 E8.20142
G1 X166.58 Y128.628 E8.23206
G1 X165.382 Y128.76 E8.27215
G1 X164.835 Y128.789 E8.29037
G1 X164.422 Y128.803 E8.30411
G1 X163.274 Y128.819 E8.3423
G1 X163.095 Y128.82 E8.34825
G1 X156.909 Y128.802 E8.554
G1 X141.853 Y128.802 E9.05476
G1 X136.362 Y128.823 E9.2374
G1 X136.221 Y128.823 E9.24209
G1 X135.479 Y128.816 E9.26677
G1 X134.56 Y128.767 E9.29737
G1 X133.648 Y128.639 E9.32801
G1 X132.751 Y128.432 E9.35862
G1 X131.875 Y128.148 E9.38925
G1 X131.027 Y127.789 E9.41988
G1 X130.214 Y127.358 E9.45049
G1 X129.071 Y126.583 E9.49642
G1 X128.936 Y126.478 E9.50211
G1 X128.235 Y125.882 E9.53271
G1 X127.588 Y125.227 E9.56333
G1 X127 Y124.518 E9.59397
G1 X126.476 Y123.762 E9.62456
G1 X126.178 Y123.259 E9.64401
G1 X126.068 Y123.061 E9.65154
G1 X125.656 Y122.237 E9.68218
G1 X125.218 Y121.08 E9.72333
G1 X125.146 Y120.85 E9.73134
G1 X124.909 Y119.96 E9.76198
G1 X124.707 Y118.655 E9.8059
G1 X124.671 Y118.264 E9.81896
G1 X124.628 Y117.475 E9.84524
G1 X124.622 Y117.128 E9.85678
G1 X124.62 Y116.944 E9.8629
G1 X124.621 Y103.304 E10.31657
G1 X124.622 Y103.154 E10.32156
G1 X124.632 Y102.452 E10.34491
G1 X124.692 Y101.465 E10.3778
G1 X124.723 Y101.178 E10.3874
G1 X124.862 Y100.268 E10.41802
G1 X125.129 Y99.205 E10.45447
G1 X125.199 Y98.977 E10.4624
G1 X125.507 Y98.109 E10.49304
G1 X125.889 Y97.272 E10.52364
G1 X126.419 Y96.351 E10.55898
G1 X126.587 Y96.09 E10.56931
G1 X127.118 Y95.338 E10.59992
G0 F6000 X127.445 Y95.569
G1 F1200 X128.03 Y94.881 E10.62996
G1 X128.674 Y94.248 E10.65999
G1 X129.371 Y93.674 E10.69003
G1 X129.887 Y93.31 E10.71103
G1 X129.931 Y93.281 E10.71278
G1 X130.706 Y92.818 E10.74281
G1 X131.519 Y92.426 E10.77283
G1 X132.364 Y92.106 E10.80288
G1 X133.234 Y91.863 E10.83292
G1 X134.122 Y91.698 E10.86296
G1 X135.246 Y91.602 E10.90049
G1 X135.964 Y91.581 E10.92438
G1 X136.301 Y91.577 E10.93559
G1 X141.864 Y91.598 E11.12061
G1 X157.164 Y91.599 E11.62949
G1 X164.129 Y91.577 E11.86115
G1 X164.348 Y91.579 E11.86844
G1 X165.003 Y91.591 E11.89022
G1 X165.904 Y91.647 E11.92025
G1 X166.797 Y91.783 E11.95029
G1 X167.674 Y91.998 E11.98033
G1 X168.529 Y92.289 E12.01037
G1 X169.355 Y92.655 E12.04041
G1 X170.145 Y93.092 E12.07044
G1 X170.893 Y93.597 E12.10046
G1 X171.594 Y94.167 E12.13051
G1 X172.242 Y94.796 E12.16055
G1 X172.831 Y95.481 E12.19059
G1 X173.358 Y96.214 E12.22062
G1 X173.817 Y96.992 E12.25067
G1 X174.207 Y97.807 E12.28072
G1 X174.522 Y98.653 E12.31074
G1 X174.761 Y99.524 E12.34078
G1 X174.923 Y100.412 E12.3708
G1 X175.015 Y101.632 E12.4115
G1 X175.03 Y102.607 E12.44393
G1 X175.031 Y102.764 E12.44915
G1 X175.031 Y117.459 E12.93791
G1 X175.03 Y117.601 E12.94263
G1 X175.02 Y118.317 E12.96645
G1 X174.967 Y119.219 E12.9965
G1 X174.835 Y120.112 E13.02652
G1 X174.625 Y120.991 E13.05658
G1 X174.337 Y121.847 E13.08662
G1 X173.975 Y122.674 E13.11665
G1 X173.541 Y123.466 E13.14669
G1 X173.039 Y124.217 E13.17673
G1 X172.472 Y124.92 E13.20677
G1 X171.846 Y125.57 E13.23678
G1 X171.164 Y126.163 E13.26684
G1 X170.433 Y126.692 E13.29686
G1 X169.657 Y127.155 E13.32691
G1 X168.844 Y127.548 E13.35694
G1 X167.999 Y127.867 E13.38699
G1 X167.129 Y128.11 E13.41703
G1 X166.242 Y128.276 E13.44704
G1 X165.361 Y128.361 E13.47648
G1 X164.814 Y128.39 E13.4947
G1 X164.416 Y128.403 E13.50794
G1 X163.268 Y128.419 E13.54613
G1 X163.096 Y128.42 E13.55185
G1 X156.91 Y128.402 E13.7576
G1 X141.851 Y128.402 E14.25846
G1 X136.36 Y128.423 E14.4411
G1 X136.225 Y128.423 E14.44559
G1 X135.483 Y128.416 E14.47027
G1 X134.581 Y128.367 E14.50031
G1 X133.687 Y128.239 E14.53035
G1 X132.808 Y128.032 E14.56039
G1 X131.95 Y127.749 E14.59043
G1 X131.121 Y127.39 E14.62048
G1 X130.327 Y126.96 E14.65051
G1 X129.317 Y126.267 E14.69125
G1 X129.182 Y126.162 E14.69694
G1 X128.494 Y125.577 E14.72698
G1 X127.861 Y124.933 E14.75701
G1 X127.287 Y124.235 E14.78707
G1 X126.778 Y123.49 E14.81708
G1 X126.528 Y123.065 E14.83348
G1 X126.418 Y122.867 E14.84101
G1 X126.014 Y122.058 E14.87109
G1 X125.6 Y120.96 E14.91012
G1 X125.528 Y120.73 E14.91814
G1 X125.296 Y119.857 E14.94818
G1 X125.105 Y118.618 E14.98988
G1 X125.069 Y118.227 E15.00294
G1 X125.028 Y117.468 E15.02822
G1 X125.022 Y117.121 E15.03976
G1 X125.02 Y116.944 E15.04565
G1 X125.021 Y103.304 E15.49931
G1 X125.022 Y103.16 E15.5041
G1 X125.032 Y102.458 E15.52746
G1 X125.09 Y101.508 E15.55911
G1 X125.121 Y101.221 E15.56871
G1 X125.258 Y100.328 E15.59876
G1 X125.511 Y99.322 E15.63326
G1 X125.581 Y99.094 E15.6412
G1 X125.884 Y98.244 E15.67121
G1 X126.261 Y97.423 E15.70126
G1 X126.755 Y96.567 E15.73413
G1 X126.923 Y96.306 E15.74445
G1 X127.445 Y95.569 E15.77449
G1 F1500 E9.27449
;MESH:Case 2 v16.stl
G0 F6000 X134.562 Y102.514
G0 X135.64 Y102.629
G0 X137.149 Y113.192
G0 X137.425 Y113.783
G0 X138.788 Y115.417
;TYPE:WALL-INNER
G1 F1500 E15.77449
G1 F1200 X139.226 Y115.489 E15.78925
G1 X139.671 Y115.494 E15.80406
G1 X140.119 Y115.435 E15.81909
G1 X140.55 Y115.307 E15.83404
G1 X140.956 Y115.118 E15.84893
G1 X141.332 Y114.868 E15.86395
G1 X141.663 Y114.567 E15.87883
G1 X141.945 Y114.224 E15.8936
G1 X142.176 Y113.835 E15.90865
G1 X142.345 Y113.419 E15.92358
G1 X142.45 Y112.984 E15.93847
G1 X142.486 Y112.57 E15.95229
G1 X142.489 Y107.462 E16.12218
G1 X142.458 Y107.052 E16.13586
G1 X142.366 Y106.649 E16.14961
G1 X142.211 Y106.231 E16.16443
G1 X141.989 Y105.838 E16.17945
G1 X141.716 Y105.488 E16.19421
G1 X141.391 Y105.178 E16.20915
G1 X141.022 Y104.919 E16.22414
G1 X140.618 Y104.719 E16.23914
G1 X140.191 Y104.583 E16.25404
G1 X139.75 Y104.511 E16.2689
G1 X139.306 Y104.506 E16.28367
G1 X138.86 Y104.565 E16.29863
G1 X138.426 Y104.693 E16.31368
G1 X138.02 Y104.882 E16.32858
G1 X137.646 Y105.132 E16.34354
G1 X137.317 Y105.431 E16.35833
G1 X137.032 Y105.776 E16.37321
G1 X136.802 Y106.163 E16.38819
G1 X136.632 Y106.579 E16.40313
G1 X136.617 Y106.639 E16.40519
G1 X136.527 Y107.018 E16.41815
G1 X136.492 Y107.433 E16.432
G1 X136.489 Y112.537 E16.60176
G1 X136.519 Y112.945 E16.61536
G1 X136.611 Y113.354 E16.62931
G1 X136.618 Y113.373 E16.62998
G1 X136.769 Y113.77 E16.64411
G1 X136.988 Y114.16 E16.65898
G1 X137.264 Y114.513 E16.67389
G1 X137.588 Y114.824 E16.68883
G1 X137.956 Y115.08 E16.70374
G1 X138.358 Y115.281 E16.71868
G1 X138.788 Y115.417 E16.73368
G0 F6000 X138.881 Y115.027
G1 F1200 X139.261 Y115.089 E16.74649
G1 X139.647 Y115.094 E16.75933
G1 X140.035 Y115.043 E16.77235
G1 X140.408 Y114.932 E16.78529
G1 X140.76 Y114.768 E16.79821
G1 X141.085 Y114.552 E16.81118
G1 X141.372 Y114.291 E16.82409
G1 X141.617 Y113.993 E16.83692
G1 X141.817 Y113.657 E16.84992
G1 X141.963 Y113.296 E16.86288
G1 X142.054 Y112.919 E16.87577
G1 X142.086 Y112.552 E16.88803
G1 X142.089 Y107.477 E17.05682
G1 X142.061 Y107.112 E17.069
G1 X141.982 Y106.763 E17.0809
G1 X141.847 Y106.4 E17.09378
G1 X141.655 Y106.061 E17.10674
G1 X141.418 Y105.757 E17.11956
G1 X141.137 Y105.488 E17.1325
G1 X140.817 Y105.264 E17.14549
G1 X140.468 Y105.091 E17.15845
G1 X140.098 Y104.973 E17.17136
G1 X139.715 Y104.911 E17.18427
G1 X139.33 Y104.906 E17.19707
G1 X138.943 Y104.957 E17.21006
G1 X138.568 Y105.068 E17.22306
G1 X138.217 Y105.232 E17.23595
G1 X137.893 Y105.448 E17.2489
G1 X137.607 Y105.708 E17.26176
G1 X137.36 Y106.007 E17.27466
G1 X137.161 Y106.342 E17.28762
G1 X137.014 Y106.702 E17.30055
G1 X136.923 Y107.082 E17.31354
G1 X136.892 Y107.45 E17.32583
G1 X136.889 Y112.522 E17.49452
G1 X136.916 Y112.886 E17.50666
G1 X136.995 Y113.239 E17.51869
G1 X137.132 Y113.6 E17.53154
G1 X137.322 Y113.938 E17.54443
G1 X137.561 Y114.244 E17.55735
G1 X137.842 Y114.513 E17.57029
G1 X138.161 Y114.735 E17.58321
G1 X138.509 Y114.909 E17.59615
G1 X138.881 Y115.027 E17.60913
G0 F6000 X138.974 Y114.637
;TYPE:WALL-OUTER
G1 F1200 X139.296 Y114.689 E17.61998
G1 X139.624 Y114.694 E17.63089
G1 X139.951 Y114.651 E17.64186
G1 X140.266 Y114.557 E17.6528
G1 X140.564 Y114.418 E17.66373
G1 X140.838 Y114.236 E17.67467
G1 X141.081 Y114.015 E17.6856
G1 X141.289 Y113.762 E17.69649
G1 X141.458 Y113.479 E17.70745
G1 X141.581 Y113.174 E17.71839
G1 X141.658 Y112.854 E17.72934
G1 X141.686 Y112.534 E17.74002
G1 X141.689 Y107.492 E17.90772
G1 X141.664 Y107.172 E17.9184
G1 X141.598 Y106.877 E17.92845
G1 X141.483 Y106.57 E17.93935
G1 X141.321 Y106.284 E17.95029
G1 X141.12 Y106.026 E17.96116
G1 X140.882 Y105.798 E17.97213
G1 X140.612 Y105.609 E17.98309
G1 X140.317 Y105.463 E17.99404
G1 X140.005 Y105.363 E18.00493
G1 X139.68 Y105.311 E18.01588
G1 X139.353 Y105.306 E18.02676
G1 X139.027 Y105.349 E18.03769
G1 X138.711 Y105.443 E18.04866
G1 X138.414 Y105.582 E18.05957
G1 X138.14 Y105.764 E18.07051
G1 X137.897 Y105.985 E18.08143
G1 X137.688 Y106.238 E18.09235
G1 X137.52 Y106.521 E18.10329
G1 X137.396 Y106.825 E18.11421
G1 X137.319 Y107.146 E18.12519
G1 X137.292 Y107.467 E18.13591
G1 X137.289 Y112.507 E18.30354
G1 X137.313 Y112.827 E18.31421
G1 X137.379 Y113.124 E18.32433
G1 X137.495 Y113.43 E18.33521
G1 X137.656 Y113.716 E18.34613
G1 X137.858 Y113.975 E18.35705
G1 X138.096 Y114.202 E18.36799
G1 X138.366 Y114.39 E18.37894
G1 X138.66 Y114.537 E18.38987
G1 X138.974 Y114.637 E18.40083
G0 F6000 X138.872 Y115.064
G0 X136.423 Y113.432
G0 X136.22 Y117.224
;TYPE:WALL-INNER
G1 F1200 X136.22 Y117.024 E18.40748
G1 X136.22 Y113.375 E18.52885
G1 X136.22 Y113.354 E18.52954
G1 X136.22 Y112.945 E18.54129
G1 X136.22 Y112.537 E18.55095
G1 X136.22 Y107.433 E18.66604
G1 X136.22 Y107.018 E18.67605
G1 X136.22 Y106.628 E18.68754
G1 X136.221 Y102.976 E18.80901
G1 X136.221 Y102.776 E18.81566
G1 X136.421 Y102.776 E18.81997
G1 X142.071 Y102.799 E19.00789
G1 X157.248 Y102.799 E19.51268
G1 X163.631 Y102.776 E19.72498
G1 X163.831 Y102.776 E19.73163
G1 X163.831 Y102.976 E19.73594
G1 X163.831 Y117.023 E20.20314
G1 X163.831 Y117.223 E20.20979
G1 X163.631 Y117.223 E20.2141
G1 X157.249 Y117.202 E20.42637
G1 X142.072 Y117.201 E20.93116
G1 X136.42 Y117.224 E21.11914
G1 X136.22 Y117.224 E21.12345
G0 F6000 X135.82 Y117.305
G1 F1200 X135.821 Y102.649 E21.61091
G1 X135.821 Y102.641 E21.61118
G1 X135.844 Y102.432 E21.61817
G1 X135.861 Y102.377 E21.62009
G1 X136.097 Y102.375 E21.62794
G1 X136.105 Y102.375 E21.6282
G1 X142.072 Y102.399 E21.82667
G1 X157.247 Y102.399 E22.33139
G1 X163.893 Y102.376 E22.55244
G1 X163.954 Y102.376 E22.55447
G1 X164.231 Y102.377 E22.56368
G1 X164.231 Y102.438 E22.56571
G1 X164.231 Y117.561 E23.0687
G1 X164.231 Y117.614 E23.07046
G1 X163.939 Y117.623 E23.08018
G1 X163.886 Y117.623 E23.08194
