;FLAVOR:Marlin
;TIME:909
;Filament used: 0.57929m
;Layer height: 0.2
;MINX:124.595
;MINY:90.775
;MINZ:0.2
;MAXX:175.456
;MAXY:129.225
;MAXZ:6.8
;POSTPROCESSED
;Generated with Cura_SteamEngine 4.4.1
M140 S60
M105
M190 S60
M104 S200
M105
M109 S200
M82 ;absolute extrusion mode
M201 X500.00 Y500.00 Z100.00 E5000.00 ;Setup machine max acceleration
M203 X500.00 Y500.00 Z10.00 E50.00 ;Setup machine max feedrate
M204 P500.00 R1000.00 T500.00 ;Setup Print/Retract/Travel acceleration
M205 X8.00 Y8.00 Z0.40 E5.00 ;Setup Jerk
M220 S100 ;Reset Feedrate
M221 S100 ;Reset Flowrate

G28 ;Home

G92 E0 ;Reset Extruder
G1 Z2.0 F3000 ;Move Z Axis up
G1 X10.1 Y20 Z0.28 F5000.0 ;Move to start position
G1 X10.1 Y200.0 Z0.28 F1500.0 E15 ;Draw the first line
G1 X10.4 Y200.0 Z0.28 F5000.0 ;Move to side a little
G1 X10.4 Y20 Z0.28 F1500.0 E30 ;Draw the second line
G92 E0 ;Reset Extruder
G1 Z2.0 F3000 ;Move Z Axis up

G92 E0
G92 E0
G1 F1500 E-6.5
;LAYER_COUNT:34
;LAYER:0
M107
G0 F6000 X127.189 Y95.079 Z0.2
;TYPE:SKIRT
G1 F1500 E0
G1 F1200 X127.795 Y94.363 E0.0312
G1 X128.46 Y93.702 E0.06238
G1 X129.178 Y93.1 E0.09355
G1 X129.946 Y92.561 E0.12476
G1 X130.757 Y92.089 E0.15597
G1 X131.604 Y91.688 E0.18713
G1 X132.483 Y91.361 E0.21833
G1 X133.387 Y91.11 E0.24953
G1 X134.309 Y90.937 E0.28073
G1 X135.251 Y90.842 E0.31222
G1 X136.092 Y90.794 E0.34024
G1 X136.689 Y90.776 E0.36011
G1 X137.059 Y90.775 E0.37241
G1 X137.127 Y90.775 E0.37467
G1 X142.006 Y90.792 E0.53695
G1 X157.039 Y90.793 E1.03695
G1 X163.713 Y90.781 E1.25893
G1 X163.921 Y90.783 E1.26585
G1 X164.624 Y90.795 E1.28923
G1 X165.56 Y90.851 E1.32042
G1 X166.488 Y90.986 E1.35161
G1 X167.401 Y91.2 E1.3828
G1 X168.293 Y91.491 E1.41401
G1 X169.156 Y91.857 E1.44518
G1 X169.985 Y92.295 E1.47637
G1 X170.774 Y92.803 E1.50758
G1 X171.517 Y93.375 E1.53877
G1 X172.208 Y94.009 E1.56996
G1 X172.843 Y94.699 E1.60115
G1 X173.417 Y95.441 E1.63235
G1 X173.925 Y96.229 E1.66353
G1 X174.365 Y97.058 E1.69475
G1 X174.732 Y97.921 E1.72594
G1 X175.024 Y98.812 E1.75712
G1 X175.24 Y99.725 E1.78833
G1 X175.377 Y100.653 E1.81953
G1 X175.434 Y101.57 E1.85009
G1 X175.454 Y102.557 E1.88292
G1 X175.456 Y102.78 E1.89034
G1 X175.456 Y117.481 E2.3793
G1 X175.455 Y117.635 E2.38442
G1 X175.445 Y118.35 E2.4082
G1 X175.392 Y119.286 E2.43938
G1 X175.259 Y120.215 E2.4706
G1 X175.048 Y121.128 E2.50176
G1 X174.76 Y122.021 E2.53297
G1 X174.396 Y122.886 E2.56418
G1 X173.961 Y123.716 E2.59535
G1 X173.456 Y124.506 E2.62654
G1 X172.886 Y125.251 E2.65774
G1 X172.254 Y125.944 E2.68893
G1 X171.566 Y126.581 E2.72012
G1 X170.825 Y127.157 E2.75133
G1 X170.039 Y127.668 E2.78251
G1 X169.212 Y128.11 E2.8137
G1 X168.35 Y128.48 E2.8449
G1 X167.46 Y128.775 E2.87609
G1 X166.547 Y128.993 E2.90731
G1 X165.62 Y129.133 E2.93849
G1 X164.696 Y129.193 E2.96929
G1 X163.686 Y129.216 E3.00289
G1 X163.462 Y129.219 E3.01034
G1 X160.92 Y129.225 E3.09489
G1 X160.871 Y129.225 E3.09652
G1 X155.519 Y129.214 E3.27453
G1 X142.093 Y129.214 E3.72108
G1 X140.237 Y129.222 E3.78281
G1 X140.199 Y129.222 E3.78407
G1 X136.67 Y129.225 E3.90145
G1 X136.504 Y129.224 E3.90697
G1 X135.805 Y129.214 E3.93022
G1 X134.868 Y129.16 E3.96144
G1 X133.94 Y129.028 E3.99261
G1 X133.026 Y128.816 E4.02382
G1 X132.134 Y128.527 E4.055
G1 X131.269 Y128.164 E4.0862
G1 X130.439 Y127.728 E4.11739
G1 X129.503 Y127.119 E4.15453
G1 X129.361 Y127.016 E4.16036
G1 X128.626 Y126.434 E4.19155
G1 X127.944 Y125.791 E4.22272
G1 X127.318 Y125.092 E4.25393
G1 X126.754 Y124.342 E4.28514
G1 X126.213 Y123.47 E4.31927
G1 X126.102 Y123.271 E4.32685
G1 X125.681 Y122.434 E4.35801
G1 X125.258 Y121.345 E4.39687
G1 X125.192 Y121.144 E4.40391
G1 X124.938 Y120.241 E4.43511
G1 X124.761 Y119.32 E4.4663
G1 X124.698 Y118.807 E4.48349
G1 X124.656 Y118.387 E4.49753
G1 X124.603 Y117.488 E4.52748
G1 X124.597 Y117.152 E4.53866
G1 X124.595 Y116.955 E4.54521
G1 X124.596 Y103.304 E4.99925
G1 X124.597 Y103.149 E5.0044
G1 X124.607 Y102.445 E5.02782
G1 X124.668 Y101.437 E5.06141
G1 X124.698 Y101.155 E5.07084
G1 X124.837 Y100.228 E5.10202
G1 X125.121 Y99.087 E5.14112
G1 X125.192 Y98.856 E5.14916
G1 X125.506 Y97.972 E5.18036
G1 X125.894 Y97.118 E5.21156
G1 X126.475 Y96.108 E5.25031
G1 X126.646 Y95.844 E5.26078
G1 X127.189 Y95.079 E5.29198
G0 F6000 X127.515 Y95.311
G1 F1200 X128.112 Y94.61 E5.3226
G1 X128.767 Y93.963 E5.35323
G1 X129.476 Y93.376 E5.38384
G1 X130.233 Y92.852 E5.41446
G1 X131.033 Y92.396 E5.44509
G1 X131.869 Y92.011 E5.4757
G1 X132.736 Y91.7 E5.50634
G1 X133.626 Y91.466 E5.53694
G1 X134.533 Y91.31 E5.56755
G1 X135.274 Y91.241 E5.59231
G1 X136.115 Y91.193 E5.62032
G1 X136.69 Y91.176 E5.63946
G1 X137.06 Y91.175 E5.65176
G1 X137.126 Y91.175 E5.65396
G1 X142.005 Y91.192 E5.81624
G1 X157.04 Y91.193 E6.3163
G1 X163.714 Y91.181 E6.53828
G1 X163.914 Y91.183 E6.54493
G1 X164.617 Y91.195 E6.56832
G1 X165.536 Y91.25 E6.59894
G1 X166.447 Y91.385 E6.62957
G1 X167.342 Y91.599 E6.66018
G1 X168.216 Y91.89 E6.69081
G1 X169.061 Y92.255 E6.72143
G1 X169.871 Y92.692 E6.75204
G1 X170.64 Y93.198 E6.78266
G1 X171.362 Y93.769 E6.81327
G1 X172.033 Y94.4 E6.84391
G1 X172.645 Y95.087 E6.87451
G1 X173.196 Y95.825 E6.90514
G1 X173.681 Y96.608 E6.93578
G1 X174.096 Y97.429 E6.96637
G1 X174.438 Y98.284 E6.997
G1 X174.705 Y99.165 E7.02762
G1 X174.894 Y100.066 E7.05824
G1 X175.005 Y100.98 E7.08886
G1 X175.034 Y101.578 E7.10878
G1 X175.054 Y102.565 E7.14161
G1 X175.056 Y102.78 E7.14876
G1 X175.056 Y117.481 E7.63772
G1 X175.055 Y117.629 E7.64264
G1 X175.045 Y118.344 E7.66642
G1 X174.992 Y119.263 E7.69704
G1 X174.86 Y120.174 E7.72766
G1 X174.649 Y121.071 E7.75831
G1 X174.361 Y121.945 E7.78891
G1 X173.998 Y122.791 E7.81953
G1 X173.563 Y123.603 E7.85017
G1 X173.06 Y124.374 E7.88079
G1 X172.491 Y125.098 E7.91142
G1 X171.862 Y125.77 E7.94203
G1 X171.177 Y126.385 E7.97265
G1 X170.441 Y126.938 E8.00327
G1 X169.66 Y127.425 E8.03388
G1 X168.839 Y127.843 E8.06452
G1 X167.986 Y128.188 E8.09513
G1 X167.105 Y128.457 E8.12576
G1 X166.205 Y128.649 E8.15637
G1 X165.291 Y128.762 E8.187
G1 X164.687 Y128.793 E8.20712
G1 X163.677 Y128.816 E8.24072
G1 X163.461 Y128.819 E8.2479
G1 X160.919 Y128.825 E8.33245
G1 X160.872 Y128.825 E8.33402
G1 X155.52 Y128.814 E8.51202
G1 X142.092 Y128.814 E8.95864
G1 X140.236 Y128.822 E9.02037
G1 X140.199 Y128.822 E9.0216
G1 X136.67 Y128.825 E9.13898
G1 X136.509 Y128.824 E9.14433
G1 X135.81 Y128.814 E9.16758
G1 X134.891 Y128.761 E9.1982
G1 X133.98 Y128.628 E9.22882
G1 X133.084 Y128.417 E9.25944
G1 X132.21 Y128.129 E9.29005
G1 X131.364 Y127.766 E9.32066
G1 X130.552 Y127.331 E9.3513
G1 X129.738 Y126.795 E9.38372
G1 X129.596 Y126.692 E9.38955
G1 X128.875 Y126.12 E9.42016
G1 X128.206 Y125.487 E9.4508
G1 X127.595 Y124.799 E9.4814
G1 X127.046 Y124.06 E9.51202
G1 X126.563 Y123.276 E9.54265
G1 X126.452 Y123.077 E9.55023
G1 X126.039 Y122.254 E9.58085
G1 X125.638 Y121.22 E9.61774
G1 X125.572 Y121.019 E9.62478
G1 X125.323 Y120.133 E9.65539
G1 X125.152 Y119.228 E9.68602
G1 X125.096 Y118.767 E9.70147
G1 X125.054 Y118.347 E9.7155
G1 X125.003 Y117.481 E9.74436
G1 X124.997 Y117.145 E9.75553
G1 X124.995 Y116.955 E9.76185
G1 X124.996 Y103.304 E10.21589
G1 X124.997 Y103.154 E10.22088
G1 X125.007 Y102.45 E10.2443
G1 X125.065 Y101.48 E10.27662
G1 X125.095 Y101.198 E10.28605
G1 X125.233 Y100.287 E10.31669
G1 X125.504 Y99.205 E10.35379
G1 X125.575 Y98.974 E10.36183
G1 X125.883 Y98.106 E10.39246
G1 X126.266 Y97.269 E10.42308
G1 X126.81 Y96.325 E10.45932
G1 X126.981 Y96.061 E10.46978
G1 X127.515 Y95.311 E10.5004
G0 F6000 X127.841 Y95.543
G1 F1200 X128.428 Y94.857 E10.53043
G1 X129.074 Y94.225 E10.56049
G1 X129.772 Y93.653 E10.5905
G1 X130.519 Y93.145 E10.62055
G1 X131.308 Y92.705 E10.6506
G1 X132.132 Y92.337 E10.68061
G1 X132.986 Y92.043 E10.71065
G1 X133.863 Y91.825 E10.74071
G1 X134.755 Y91.686 E10.77073
G1 X135.297 Y91.641 E10.78882
G1 X136.138 Y91.593 E10.81684
G1 X136.691 Y91.576 E10.83524
G1 X137.061 Y91.575 E10.84755
G1 X137.125 Y91.575 E10.84968
G1 X142.004 Y91.592 E11.01195
G1 X157.041 Y91.593 E11.51209
G1 X163.715 Y91.581 E11.73407
G1 X163.907 Y91.582 E11.74045
G1 X164.61 Y91.594 E11.76384
G1 X165.511 Y91.65 E11.79386
G1 X166.404 Y91.785 E11.8239
G1 X167.282 Y91.998 E11.85395
G1 X168.137 Y92.288 E11.88398
G1 X168.963 Y92.653 E11.91401
G1 X169.754 Y93.089 E11.94406
G1 X170.503 Y93.594 E11.9741
G1 X171.205 Y94.162 E12.00413
G1 X171.853 Y94.791 E12.03417
G1 X172.443 Y95.475 E12.06422
G1 X172.971 Y96.208 E12.09426
G1 X173.431 Y96.984 E12.12427
G1 X173.822 Y97.799 E12.15433
G1 X174.138 Y98.645 E12.18437
G1 X174.378 Y99.515 E12.21438
G1 X174.541 Y100.404 E12.24445
G1 X174.634 Y101.586 E12.28388
G1 X174.654 Y102.573 E12.31671
G1 X174.656 Y102.78 E12.3236
G1 X174.656 Y117.481 E12.81256
G1 X174.655 Y117.624 E12.81731
G1 X174.645 Y118.339 E12.8411
G1 X174.592 Y119.24 E12.87112
G1 X174.46 Y120.134 E12.90117
G1 X174.25 Y121.012 E12.9312
G1 X173.962 Y121.868 E12.96124
G1 X173.6 Y122.695 E12.99126
G1 X173.166 Y123.487 E13.0213
G1 X172.664 Y124.238 E13.05135
G1 X172.097 Y124.941 E13.08139
G1 X171.471 Y125.591 E13.1114
G1 X170.789 Y126.184 E13.14146
G1 X170.058 Y126.714 E13.17149
G1 X169.282 Y127.177 E13.20155
G1 X168.469 Y127.569 E13.23157
G1 X167.624 Y127.888 E13.26161
G1 X166.754 Y128.131 E13.29165
G1 X165.866 Y128.297 E13.3217
G1 X164.678 Y128.393 E13.36134
G1 X163.668 Y128.416 E13.39494
G1 X163.46 Y128.419 E13.40186
G1 X160.918 Y128.425 E13.48641
G1 X160.873 Y128.425 E13.4879
G1 X155.521 Y128.414 E13.66591
G1 X142.09 Y128.414 E14.11263
G1 X140.234 Y128.422 E14.17436
G1 X140.199 Y128.422 E14.17552
G1 X136.67 Y128.425 E14.2929
G1 X136.515 Y128.424 E14.29805
G1 X135.816 Y128.414 E14.32131
G1 X134.915 Y128.361 E14.35132
G1 X134.021 Y128.229 E14.38138
G1 X133.143 Y128.018 E14.41142
G1 X132.287 Y127.73 E14.44145
G1 X131.46 Y127.368 E14.47148
G1 X130.668 Y126.934 E14.50152
G1 X129.973 Y126.472 E14.52928
G1 X129.831 Y126.369 E14.53511
G1 X129.124 Y125.807 E14.56515
G1 X128.47 Y125.184 E14.59519
G1 X127.873 Y124.506 E14.62524
G1 X127.339 Y123.778 E14.65527
G1 X126.912 Y123.081 E14.68245
G1 X126.801 Y122.882 E14.69003
G1 X126.396 Y122.074 E14.72009
G1 X126.018 Y121.095 E14.755
G1 X125.952 Y120.894 E14.76203
G1 X125.709 Y120.024 E14.79208
G1 X125.494 Y118.727 E14.8358
G1 X125.452 Y118.307 E14.84984
G1 X125.403 Y117.474 E14.8776
G1 X125.397 Y117.138 E14.88877
G1 X125.395 Y116.955 E14.89486
G1 X125.396 Y103.304 E15.3489
G1 X125.397 Y103.16 E15.35369
G1 X125.407 Y102.456 E15.3771
G1 X125.463 Y101.522 E15.40822
G1 X125.493 Y101.24 E15.41766
G1 X125.628 Y100.347 E15.44769
G1 X125.886 Y99.322 E15.48285
G1 X125.957 Y99.091 E15.49089
G1 X126.26 Y98.241 E15.5209
G1 X126.638 Y97.42 E15.55096
G1 X127.146 Y96.543 E15.58467
G1 X127.317 Y96.279 E15.59513
G1 X127.841 Y95.543 E15.62518
G1 F1500 E9.12518
;MESH:Case 3 v2.stl
G0 F6000 X134.937 Y102.514
G0 X136.015 Y102.629
G0 X137.524 Y113.192
G0 X137.8 Y113.783
G0 X139.163 Y115.417
;TYPE:WALL-INNER
G1 F1500 E15.62518
G1 F1200 X139.601 Y115.489 E15.63995
G1 X140.046 Y115.494 E15.65475
G1 X140.494 Y115.435 E15.66978
G1 X140.925 Y115.307 E15.68473
G1 X141.331 Y115.118 E15.69963
G1 X141.707 Y114.868 E15.71464
G1 X142.038 Y114.567 E15.72953
G1 X142.32 Y114.224 E15.74429
G1 X142.551 Y113.835 E15.75934
G1 X142.72 Y113.419 E15.77428
G1 X142.825 Y112.984 E15.78916
G1 X142.861 Y112.57 E15.80298
G1 X142.864 Y107.462 E15.97287
G1 X142.833 Y107.052 E15.98655
G1 X142.741 Y106.649 E16.0003
G1 X142.586 Y106.231 E16.01513
G1 X142.364 Y105.838 E16.03014
G1 X142.091 Y105.488 E16.0449
G1 X141.766 Y105.178 E16.05984
G1 X141.397 Y104.919 E16.07484
G1 X140.993 Y104.719 E16.08983
G1 X140.566 Y104.583 E16.10473
G1 X140.125 Y104.511 E16.1196
G1 X139.681 Y104.506 E16.13436
G1 X139.235 Y104.565 E16.14933
G1 X138.801 Y104.693 E16.16438
G1 X138.395 Y104.882 E16.17927
G1 X138.021 Y105.132 E16.19423
G1 X137.692 Y105.431 E16.20902
G1 X137.407 Y105.776 E16.2239
G1 X137.177 Y106.163 E16.23888
G1 X137.007 Y106.579 E16.25382
G1 X136.992 Y106.639 E16.25588
G1 X136.902 Y107.018 E16.26884
G1 X136.867 Y107.433 E16.28269
G1 X136.864 Y112.537 E16.45245
G1 X136.894 Y112.945 E16.46606
G1 X136.986 Y113.354 E16.48
G1 X136.993 Y113.373 E16.48067
G1 X137.144 Y113.77 E16.4948
G1 X137.363 Y114.16 E16.50968
G1 X137.639 Y114.513 E16.52458
G1 X137.963 Y114.824 E16.53952
G1 X138.331 Y115.08 E16.55443
G1 X138.733 Y115.281 E16.56938
G1 X139.163 Y115.417 E16.58438
G0 F6000 X139.256 Y115.027
G1 F1200 X139.636 Y115.089 E16.59718
G1 X140.022 Y115.094 E16.61002
G1 X140.41 Y115.043 E16.62304
G1 X140.783 Y114.932 E16.63598
G1 X141.135 Y114.768 E16.6489
G1 X141.46 Y114.552 E16.66188
G1 X141.747 Y114.291 E16.67478
G1 X141.992 Y113.993 E16.68761
G1 X142.192 Y113.657 E16.70062
G1 X142.338 Y113.296 E16.71357
G1 X142.429 Y112.919 E16.72647
G1 X142.461 Y112.552 E16.73872
G1 X142.464 Y107.477 E16.90752
G1 X142.436 Y107.112 E16.91969
G1 X142.357 Y106.763 E16.93159
G1 X142.222 Y106.4 E16.94447
G1 X142.03 Y106.061 E16.95743
G1 X141.793 Y105.757 E16.97025
G1 X141.512 Y105.488 E16.98319
G1 X141.192 Y105.264 E16.99618
G1 X140.843 Y105.091 E17.00914
G1 X140.473 Y104.973 E17.02205
G1 X140.09 Y104.911 E17.03496
G1 X139.705 Y104.906 E17.04777
G1 X139.318 Y104.957 E17.06075
G1 X138.943 Y105.068 E17.07376
G1 X138.592 Y105.232 E17.08664
G1 X138.268 Y105.448 E17.09959
G1 X137.982 Y105.708 E17.11245
G1 X137.735 Y106.007 E17.12535
G1 X137.536 Y106.342 E17.13831
G1 X137.389 Y106.702 E17.15124
G1 X137.298 Y107.082 E17.16424
G1 X137.267 Y107.45 E17.17652
G1 X137.264 Y112.522 E17.34522
G1 X137.291 Y112.886 E17.35736
G1 X137.37 Y113.239 E17.36939
G1 X137.507 Y113.6 E17.38223
G1 X137.697 Y113.938 E17.39513
G1 X137.936 Y114.244 E17.40804
G1 X138.217 Y114.513 E17.42098
G1 X138.536 Y114.735 E17.4339
G1 X138.884 Y114.909 E17.44685
G1 X139.256 Y115.027 E17.45983
G0 F6000 X139.349 Y114.637
;TYPE:WALL-OUTER
G1 F1200 X139.671 Y114.689 E17.47067
G1 X139.999 Y114.694 E17.48158
G1 X140.326 Y114.651 E17.49255
G1 X140.641 Y114.557 E17.50349
G1 X140.939 Y114.418 E17.51442
G1 X141.213 Y114.236 E17.52537
G1 X141.456 Y114.015 E17.53629
G1 X141.664 Y113.762 E17.54718
G1 X141.833 Y113.479 E17.55815
G1 X141.956 Y113.174 E17.56908
G1 X142.033 Y112.854 E17.58003
G1 X142.061 Y112.534 E17.59072
G1 X142.064 Y107.492 E17.75841
G1 X142.039 Y107.172 E17.76909
G1 X141.973 Y106.877 E17.77914
G1 X141.858 Y106.57 E17.79005
G1 X141.696 Y106.284 E17.80098
G1 X141.495 Y106.026 E17.81186
G1 X141.257 Y105.798 E17.82282
G1 X140.987 Y105.609 E17.83378
G1 X140.692 Y105.463 E17.84473
G1 X140.38 Y105.363 E17.85563
G1 X140.055 Y105.311 E17.86657
G1 X139.728 Y105.306 E17.87745
G1 X139.402 Y105.349 E17.88839
G1 X139.086 Y105.443 E17.89935
G1 X138.789 Y105.582 E17.91026
G1 X138.515 Y105.764 E17.9212
G1 X138.272 Y105.985 E17.93212
G1 X138.063 Y106.238 E17.94304
G1 X137.895 Y106.521 E17.95399
G1 X137.771 Y106.825 E17.96491
G1 X137.694 Y107.146 E17.97588
G1 X137.667 Y107.467 E17.9866
G1 X137.664 Y112.507 E18.15423
G1 X137.688 Y112.827 E18.1649
G1 X137.754 Y113.124 E18.17502
G1 X137.87 Y113.43 E18.18591
G1 X138.031 Y113.716 E18.19682
G1 X138.233 Y113.975 E18.20775
G1 X138.471 Y114.202 E18.21869
G1 X138.741 Y114.39 E18.22963
G1 X139.035 Y114.537 E18.24056
G1 X139.349 Y114.637 E18.25152
G0 F6000 X139.247 Y115.064
G0 X136.798 Y113.432
G0 X136.595 Y117.225
;TYPE:WALL-INNER
G1 F1200 X136.595 Y117.026 E18.25814
G1 X136.595 Y113.375 E18.37957
G1 X136.595 Y113.354 E18.38027
G1 X136.595 Y112.945 E18.39202
G1 X136.595 Y112.537 E18.40168
G1 X136.595 Y107.433 E18.51676
G1 X136.595 Y107.018 E18.52678
G1 X136.595 Y106.628 E18.53827
G1 X136.596 Y102.929 E18.6613
G1 X136.596 Y102.775 E18.66642
G1 X136.686 Y102.774 E18.66941
G1 X136.84 Y102.774 E18.67453
G1 X142.259 Y102.793 E18.85477
G1 X157.058 Y102.793 E19.34699
G1 X163.177 Y102.78 E19.55051
G1 X163.296 Y102.78 E19.55446
G1 X163.456 Y102.78 E19.55979
G1 X163.456 Y102.899 E19.56291
G1 X163.456 Y117.219 E20.03919
G1 X160.894 Y117.225 E20.12441
G1 X155.75 Y117.214 E20.2955
G1 X142.26 Y117.213 E20.74418
G1 X140.364 Y117.222 E20.80724
G1 X136.794 Y117.225 E20.92598
G1 X136.595 Y117.225 E20.93026
G0 F6000 X136.195 Y117.305
G1 F1200 X136.196 Y102.641 E21.41798
G1 X136.219 Y102.432 E21.42498
G1 X136.236 Y102.378 E21.42686
