;FLAVOR:Marlin
;TIME:721
;Filament used: 0.359522m
;Layer height: 0.2
;MINX:125.75
;MINY:89.5
;MINZ:0.2
;MAXX:174.25
;MAXY:130.5
;MAXZ:4.2
;Generated with Cura_SteamEngine 4.4.1
M140 S60
M105
M190 S60
M104 S200
M105
M109 S200
M82 ;absolute extrusion mode
M201 X500.00 Y500.00 Z100.00 E5000.00 ;Setup machine max acceleration
M203 X500.00 Y500.00 Z10.00 E50.00 ;Setup machine max feedrate
M204 P500.00 R1000.00 T500.00 ;Setup Print/Retract/Travel acceleration
M205 X8.00 Y8.00 Z0.40 E5.00 ;Setup Jerk
M220 S100 ;Reset Feedrate
M221 S100 ;Reset Flowrate

G28 ;Home

G92 E0 ;Reset Extruder
G1 Z2.0 F3000 ;Move Z Axis up
G1 X10.1 Y20 Z0.28 F5000.0 ;Move to start position
G1 X10.1 Y200.0 Z0.28 F1500.0 E15 ;Draw the first line
G1 X10.4 Y200.0 Z0.28 F5000.0 ;Move to side a little
G1 X10.4 Y20 Z0.28 F1500.0 E30 ;Draw the second line
G92 E0 ;Reset Extruder
G1 Z2.0 F3000 ;Move Z Axis up

G92 E0
G92 E0
G1 F1500 E-6.5
;LAYER_COUNT:21
;LAYER:0
M107
G0 F6000 X127.753 Y97.694 Z0.2
;TYPE:SKIRT
G1 F1500 E0
G1 F1200 X128.324 Y96.95 E0.03119
G1 X128.956 Y96.257 E0.06239
G1 X129.645 Y95.62 E0.0936
G1 X130.385 Y95.044 E0.12479
G1 X131.172 Y94.534 E0.15598
G1 X132 Y94.092 E0.1872
G1 X133.07 Y93.646 E0.22575
G1 X134.081 Y93.286 E0.26145
G1 X134.241 Y93.231 E0.26707
G1 X134.868 Y93.018 E0.2891
G1 X137.23 Y92.142 E0.37289
G1 X139.569 Y91.197 E0.45679
G1 X140.813 Y90.654 E0.50194
G1 X140.978 Y90.583 E0.50791
G1 X141.498 Y90.366 E0.52665
G1 X142.378 Y90.043 E0.55783
G1 X143.282 Y89.795 E0.58901
G1 X144.205 Y89.625 E0.62023
G1 X145.163 Y89.533 E0.65224
G1 X145.509 Y89.515 E0.66376
G1 X146.08 Y89.5 E0.68276
G1 X162.543 Y89.5 E1.23032
G1 X162.701 Y89.501 E1.23557
G1 X163.399 Y89.511 E1.25879
G1 X164.335 Y89.565 E1.28997
G1 X165.263 Y89.697 E1.32115
G1 X166.177 Y89.909 E1.35236
G1 X167.069 Y90.198 E1.38354
G1 X167.934 Y90.561 E1.41474
G1 X168.764 Y90.997 E1.44593
G1 X169.555 Y91.502 E1.47714
G1 X170.299 Y92.073 E1.50833
G1 X170.992 Y92.705 E1.53953
G1 X171.629 Y93.393 E1.57071
G1 X172.204 Y94.134 E1.60191
G1 X172.715 Y94.92 E1.63309
G1 X173.157 Y95.748 E1.66431
G1 X173.526 Y96.61 E1.6955
G1 X173.821 Y97.5 E1.72668
G1 X174.039 Y98.412 E1.75787
G1 X174.179 Y99.34 E1.78908
G1 X174.237 Y100.201 E1.81779
G1 X174.246 Y100.521 E1.82843
G1 X174.25 Y100.83 E1.83871
G1 X174.25 Y118.764 E2.4352
G1 X174.249 Y118.9 E2.43972
G1 X174.24 Y119.627 E2.4639
G1 X174.189 Y120.564 E2.49511
G1 X174.057 Y121.492 E2.52629
G1 X173.848 Y122.406 E2.55747
G1 X173.561 Y123.299 E2.58867
G1 X173.199 Y124.165 E2.61989
G1 X172.765 Y124.996 E2.65107
G1 X172.261 Y125.787 E2.68227
G1 X171.692 Y126.532 E2.71345
G1 X171.061 Y127.227 E2.74467
G1 X170.374 Y127.865 E2.77585
G1 X169.635 Y128.442 E2.80704
G1 X168.849 Y128.954 E2.83824
G1 X168.023 Y129.397 E2.86941
G1 X167.161 Y129.769 E2.90064
G1 X166.272 Y130.065 E2.9318
G1 X165.36 Y130.285 E2.963
G1 X164.433 Y130.426 E2.99419
G1 X163.549 Y130.487 E3.02366
G1 X163.228 Y130.496 E3.03434
G1 X162.92 Y130.5 E3.04459
G1 X146.457 Y130.5 E3.59215
G1 X146.299 Y130.499 E3.59741
G1 X145.601 Y130.489 E3.62062
G1 X144.665 Y130.435 E3.65181
G1 X143.737 Y130.303 E3.68298
G1 X142.823 Y130.091 E3.71419
G1 X141.931 Y129.802 E3.74538
G1 X141.417 Y129.597 E3.76378
G1 X140.905 Y129.377 E3.78232
G1 X138.53 Y128.383 E3.86795
G1 X136.13 Y127.455 E3.95353
G1 X133.658 Y126.585 E4.04069
G1 X133.231 Y126.44 E4.05569
G1 X132.356 Y126.101 E4.0869
G1 X131.513 Y125.69 E4.1181
G1 X130.709 Y125.208 E4.14927
G1 X129.948 Y124.659 E4.18048
G1 X129.237 Y124.047 E4.21169
G1 X128.581 Y123.377 E4.24287
G1 X127.984 Y122.654 E4.27406
G1 X127.451 Y121.882 E4.30526
G1 X126.985 Y121.068 E4.33646
G1 X126.591 Y120.217 E4.36765
G1 X126.27 Y119.336 E4.39884
G1 X126.026 Y118.43 E4.43004
G1 X125.86 Y117.507 E4.46123
G1 X125.763 Y116.329 E4.50055
G1 X125.754 Y116.008 E4.51123
G1 X125.75 Y115.7 E4.52147
G1 X125.75 Y104.698 E4.8874
G1 X125.751 Y104.538 E4.89272
G1 X125.761 Y103.849 E4.91564
G1 X125.815 Y102.913 E4.94682
G1 X125.948 Y101.985 E4.97801
G1 X126.16 Y101.071 E5.00921
G1 X126.448 Y100.179 E5.04039
G1 X126.812 Y99.314 E5.0716
G1 X127.248 Y98.484 E5.10278
G1 X127.753 Y97.694 E5.13397
G0 F6000 X128.149 Y97.827
G1 F1200 X128.718 Y97.103 E5.1646
G1 X129.348 Y96.431 E5.19523
G1 X130.033 Y95.817 E5.22583
G1 X130.77 Y95.264 E5.25648
G1 X131.551 Y94.777 E5.28709
G1 X132.372 Y94.36 E5.31772
G1 X133.204 Y94.023 E5.34757
G1 X134.215 Y93.663 E5.38327
G1 X134.369 Y93.61 E5.38868
G1 X134.999 Y93.397 E5.4108
G1 X137.382 Y92.512 E5.49535
G1 X139.73 Y91.563 E5.57958
G1 X140.973 Y91.021 E5.62468
G1 X141.132 Y90.953 E5.63044
G1 X141.652 Y90.736 E5.64918
G1 X142.516 Y90.418 E5.6798
G1 X143.404 Y90.177 E5.7104
G1 X144.311 Y90.014 E5.74105
G1 X145.183 Y89.932 E5.77018
G1 X145.529 Y89.914 E5.78171
G1 X146.08 Y89.9 E5.80004
G1 X162.543 Y89.9 E6.3476
G1 X162.695 Y89.901 E6.35266
G1 X163.393 Y89.911 E6.37587
G1 X164.312 Y89.964 E6.40649
G1 X165.223 Y90.097 E6.43711
G1 X166.119 Y90.308 E6.46773
G1 X166.993 Y90.596 E6.49833
G1 X167.84 Y90.959 E6.52898
G1 X168.651 Y91.394 E6.55959
G1 X169.421 Y91.898 E6.5902
G1 X170.145 Y92.467 E6.62083
G1 X170.817 Y93.097 E6.65147
G1 X171.432 Y93.782 E6.68208
G1 X171.985 Y94.518 E6.7127
G1 X172.472 Y95.299 E6.74332
G1 X172.889 Y96.12 E6.77394
G1 X173.234 Y96.974 E6.80458
G1 X173.503 Y97.854 E6.83518
G1 X173.695 Y98.755 E6.86582
G1 X173.808 Y99.668 E6.89642
G1 X173.837 Y100.212 E6.91454
G1 X173.846 Y100.532 E6.92519
G1 X173.85 Y100.83 E6.9351
G1 X173.85 Y118.764 E7.53159
G1 X173.849 Y118.895 E7.53595
G1 X173.84 Y119.622 E7.56013
G1 X173.789 Y120.541 E7.59074
G1 X173.658 Y121.453 E7.62138
G1 X173.448 Y122.349 E7.65199
G1 X173.162 Y123.224 E7.68261
G1 X172.801 Y124.071 E7.71323
G1 X172.367 Y124.883 E7.74386
G1 X171.865 Y125.655 E7.77449
G1 X171.297 Y126.38 E7.80512
G1 X170.669 Y127.053 E7.83573
G1 X169.985 Y127.669 E7.86635
G1 X169.25 Y128.223 E7.89696
G1 X168.47 Y128.712 E7.92758
G1 X167.65 Y129.131 E7.95821
G1 X166.797 Y129.477 E7.98883
G1 X165.917 Y129.748 E8.01945
G1 X165.017 Y129.941 E8.05007
G1 X164.103 Y130.056 E8.08071
G1 X163.538 Y130.087 E8.09953
G1 X163.217 Y130.096 E8.11021
G1 X162.92 Y130.1 E8.12009
G1 X146.457 Y130.1 E8.66765
G1 X146.305 Y130.099 E8.6727
G1 X145.607 Y130.089 E8.69592
G1 X144.688 Y130.036 E8.72654
G1 X143.777 Y129.903 E8.75716
G1 X142.881 Y129.692 E8.78777
G1 X142.007 Y129.404 E8.81838
G1 X141.575 Y129.229 E8.83388
G1 X141.133 Y129.039 E8.84989
G1 X138.637 Y127.994 E8.93989
G1 X136.311 Y127.095 E9.02283
G1 X133.768 Y126.2 E9.11249
G1 X133.359 Y126.061 E9.12686
G1 X132.501 Y125.728 E9.15747
G1 X131.674 Y125.322 E9.18811
G1 X130.887 Y124.846 E9.2187
G1 X130.143 Y124.303 E9.24934
G1 X129.449 Y123.697 E9.27998
G1 X128.811 Y123.034 E9.31059
G1 X128.232 Y122.318 E9.34121
G1 X127.718 Y121.554 E9.37184
G1 X127.272 Y120.749 E9.40245
G1 X126.897 Y119.908 E9.43307
G1 X126.597 Y119.038 E9.46368
G1 X126.374 Y118.145 E9.4943
G1 X126.229 Y117.235 E9.52494
G1 X126.163 Y116.318 E9.55552
G1 X126.154 Y115.997 E9.5662
G1 X126.15 Y115.7 E9.57608
G1 X126.15 Y104.698 E9.94201
G1 X126.151 Y104.544 E9.94713
G1 X126.161 Y103.855 E9.97005
G1 X126.214 Y102.936 E10.00067
G1 X126.347 Y102.025 E10.03129
G1 X126.559 Y101.129 E10.06191
G1 X126.847 Y100.255 E10.09252
G1 X127.21 Y99.409 E10.12314
G1 X127.645 Y98.597 E10.15378
G1 X128.149 Y97.827 E10.18439
G0 F6000 X128.545 Y97.963
G1 F1200 X129.112 Y97.26 E10.21443
G1 X129.739 Y96.61 E10.24446
G1 X130.421 Y96.018 E10.2745
G1 X131.153 Y95.488 E10.30456
G1 X131.929 Y95.026 E10.3346
G1 X132.742 Y94.634 E10.36462
G1 X133.338 Y94.4 E10.38591
G1 X134.349 Y94.04 E10.42161
G1 X134.497 Y93.989 E10.42681
G1 X135.129 Y93.775 E10.44901
G1 X137.522 Y92.886 E10.53391
G1 X139.873 Y91.937 E10.61824
G1 X141.133 Y91.387 E10.66396
G1 X141.286 Y91.322 E10.66949
G1 X141.806 Y91.105 E10.68823
G1 X142.654 Y90.794 E10.71828
G1 X143.526 Y90.56 E10.7483
G1 X144.415 Y90.404 E10.77832
G1 X145.204 Y90.332 E10.80468
G1 X145.55 Y90.314 E10.8162
G1 X146.08 Y90.3 E10.83383
G1 X162.543 Y90.3 E11.38139
G1 X162.689 Y90.301 E11.38625
G1 X163.387 Y90.311 E11.40947
G1 X164.289 Y90.364 E11.43952
G1 X165.182 Y90.496 E11.46954
G1 X166.06 Y90.707 E11.49958
G1 X166.916 Y90.995 E11.52962
G1 X167.743 Y91.357 E11.55964
G1 X168.535 Y91.792 E11.5897
G1 X169.286 Y92.294 E11.61974
G1 X169.989 Y92.861 E11.64978
G1 X170.639 Y93.488 E11.67982
G1 X171.231 Y94.17 E11.70986
G1 X171.761 Y94.901 E11.73989
G1 X172.223 Y95.677 E11.76993
G1 X172.616 Y96.49 E11.79996
G1 X172.934 Y97.335 E11.82999
G1 X173.177 Y98.205 E11.86003
G1 X173.342 Y99.093 E11.89007
G1 X173.437 Y100.223 E11.92779
G1 X173.446 Y100.543 E11.93844
G1 X173.45 Y100.83 E11.94798
G1 X173.45 Y118.764 E12.54447
G1 X173.449 Y118.89 E12.54866
G1 X173.44 Y119.617 E12.57284
G1 X173.389 Y120.519 E12.60289
G1 X173.258 Y121.413 E12.63294
G1 X173.049 Y122.291 E12.66296
G1 X172.763 Y123.148 E12.69301
G1 X172.402 Y123.976 E12.72306
G1 X171.97 Y124.768 E12.75306
G1 X171.469 Y125.52 E12.78312
G1 X170.903 Y126.224 E12.81316
G1 X170.278 Y126.875 E12.84318
G1 X169.597 Y127.469 E12.87323
G1 X168.866 Y128 E12.90328
G1 X168.092 Y128.464 E12.9333
G1 X167.279 Y128.858 E12.96335
G1 X166.435 Y129.178 E12.99337
G1 X165.565 Y129.423 E13.02343
G1 X164.678 Y129.589 E13.05344
G1 X163.527 Y129.687 E13.09186
G1 X163.206 Y129.696 E13.10254
G1 X162.92 Y129.7 E13.11206
G1 X146.457 Y129.7 E13.65962
G1 X146.311 Y129.699 E13.66447
G1 X145.613 Y129.689 E13.68769
G1 X144.711 Y129.636 E13.71775
G1 X143.818 Y129.504 E13.74777
G1 X142.94 Y129.293 E13.7778
G1 X141.733 Y128.862 E13.82043
G1 X141.2 Y128.633 E13.83973
G1 X138.8 Y127.628 E13.92627
G1 X136.422 Y126.709 E14.01106
G1 X133.953 Y125.84 E14.09812
G1 X133.487 Y125.682 E14.11448
G1 X132.646 Y125.355 E14.14449
G1 X131.836 Y124.954 E14.17456
G1 X131.065 Y124.484 E14.20459
G1 X130.339 Y123.947 E14.23462
G1 X129.663 Y123.348 E14.26466
G1 X129.043 Y122.692 E14.29468
G1 X128.483 Y121.983 E14.32473
G1 X127.988 Y121.228 E14.35476
G1 X127.562 Y120.431 E14.38482
G1 X127.208 Y119.601 E14.41483
G1 X126.929 Y118.742 E14.44487
G1 X126.726 Y117.862 E14.47491
G1 X126.603 Y116.967 E14.50496
G1 X126.563 Y116.307 E14.52695
G1 X126.554 Y115.986 E14.53763
G1 X126.55 Y115.7 E14.54714
G1 X126.55 Y104.698 E14.91307
G1 X126.551 Y104.55 E14.91799
G1 X126.561 Y103.861 E14.94091
G1 X126.614 Y102.959 E14.97096
G1 X126.747 Y102.066 E15.00099
G1 X126.958 Y101.188 E15.03103
G1 X127.246 Y100.332 E15.06107
G1 X127.608 Y99.505 E15.09109
G1 X128.043 Y98.713 E15.12115
G1 X128.545 Y97.963 E15.15116
G1 F1500 E8.65116
;MESH:DigiSpark ATtiny85 v1.stl
G0 F6000 X145.085 Y100.914
G0 X146.164 Y100.914
G0 X146.982 Y101.609
G0 X148.131 Y103.222
;TYPE:WALL-INNER
G1 F1500 E15.15116
G1 F1200 X148.346 Y103.312 E15.15891
G1 X148.573 Y103.356 E15.16661
G1 X148.802 Y103.352 E15.17422
G1 X149.029 Y103.299 E15.18198
G1 X149.236 Y103.204 E15.18955
G1 X149.423 Y103.066 E15.19728
G1 X149.577 Y102.892 E15.20501
G1 X149.691 Y102.688 E15.21278
G1 X149.757 Y102.48 E15.22004
G1 X149.759 Y102.456 E15.22084
G1 X149.782 Y102.246 E15.22787
G1 X149.763 Y102.085 E15.23326
G1 X149.752 Y102.003 E15.23601
G1 X149.736 Y101.955 E15.23769
G1 X149.679 Y101.784 E15.24369
G1 X149.558 Y101.582 E15.25152
G1 X149.467 Y101.485 E15.25594
G1 X149.401 Y101.415 E15.25914
G1 X149.211 Y101.278 E15.26694
G1 X148.994 Y101.188 E15.27475
G1 X148.767 Y101.144 E15.28244
G1 X148.536 Y101.148 E15.29012
G1 X148.311 Y101.201 E15.29781
G1 X148.101 Y101.296 E15.30548
G1 X147.917 Y101.435 E15.31315
G1 X147.87 Y101.488 E15.3155
G1 X147.764 Y101.607 E15.3208
G1 X147.649 Y101.81 E15.32856
G1 X147.577 Y102.041 E15.33661
G1 X147.561 Y102.273 E15.34435
G1 X147.588 Y102.495 E15.35179
G1 X147.661 Y102.716 E15.35953
G1 X147.781 Y102.916 E15.36728
G1 X147.939 Y103.087 E15.37503
G1 X148.131 Y103.222 E15.38283
G0 F6000 X148.326 Y102.87
;TYPE:WALL-OUTER
G1 F1200 X148.462 Y102.927 E15.38774
G1 X148.608 Y102.955 E15.39268
G1 X148.753 Y102.953 E15.39751
G1 X148.899 Y102.919 E15.40249
G1 X149.032 Y102.858 E15.40736
G1 X149.151 Y102.77 E15.41228
G1 X149.249 Y102.659 E15.41721
G1 X149.322 Y102.529 E15.42217
G1 X149.363 Y102.398 E15.42673
G1 X149.379 Y102.249 E15.43172
G1 X149.36 Y102.092 E15.43697
G1 X149.313 Y101.952 E15.44189
G1 X149.237 Y101.824 E15.44684
G1 X149.136 Y101.717 E15.45173
G1 X149.015 Y101.63 E15.45669
G1 X148.878 Y101.573 E15.46162
G1 X148.732 Y101.545 E15.46657
G1 X148.585 Y101.547 E15.47146
G1 X148.441 Y101.581 E15.47638
G1 X148.307 Y101.642 E15.48128
G1 X148.189 Y101.731 E15.48619
G1 X148.091 Y101.841 E15.49109
G1 X148.018 Y101.97 E15.49602
G1 X147.973 Y102.115 E15.50107
G1 X147.963 Y102.263 E15.50601
G1 X147.98 Y102.407 E15.51083
G1 X148.027 Y102.548 E15.51577
G1 X148.103 Y102.675 E15.52069
G1 X148.204 Y102.784 E15.52564
G1 X148.326 Y102.87 E15.5306
G0 F6000 X148.113 Y103.255
G0 X150.671 Y103.222
;TYPE:WALL-INNER
G1 F1200 X150.886 Y103.312 E15.53835
G1 X151.113 Y103.356 E15.54604
G1 X151.344 Y103.352 E15.55373
G1 X151.57 Y103.299 E15.56145
G1 X151.775 Y103.205 E15.56895
G1 X151.963 Y103.068 E15.57669
G1 X152.117 Y102.891 E15.58449
G1 X152.231 Y102.688 E15.59223
G1 X152.297 Y102.48 E15.59949
G1 X152.299 Y102.456 E15.60029
G1 X152.322 Y102.246 E15.60732
G1 X152.303 Y102.085 E15.61271
G1 X152.292 Y102.003 E15.61546
G1 X152.276 Y101.955 E15.61715
G1 X152.219 Y101.784 E15.62314
G1 X152.098 Y101.582 E15.63097
G1 X152.007 Y101.485 E15.6354
G1 X151.941 Y101.415 E15.6386
G1 X151.751 Y101.278 E15.64639
G1 X151.534 Y101.188 E15.6542
G1 X151.307 Y101.144 E15.66189
G1 X151.076 Y101.148 E15.66958
G1 X150.851 Y101.201 E15.67726
G1 X150.641 Y101.296 E15.68493
G1 X150.457 Y101.435 E15.6926
G1 X150.41 Y101.488 E15.69496
G1 X150.304 Y101.607 E15.70026
G1 X150.189 Y101.81 E15.70802
G1 X150.132 Y101.993 E15.71439
G1 X150.117 Y102.041 E15.71606
G1 X150.101 Y102.273 E15.7228
G1 X150.12 Y102.435 E15.72731
G1 X150.128 Y102.495 E15.7291
G1 X150.201 Y102.716 E15.73684
G1 X150.321 Y102.916 E15.7446
G1 X150.479 Y103.087 E15.75234
G1 X150.671 Y103.222 E15.76015
G0 F6000 X150.866 Y102.87
;TYPE:WALL-OUTER
G1 F1200 X151.002 Y102.927 E15.76505
G1 X151.148 Y102.955 E15.77
G1 X151.295 Y102.953 E15.77489
G1 X151.439 Y102.919 E15.77981
G1 X151.572 Y102.858 E15.78468
G1 X151.691 Y102.771 E15.78958
G1 X151.789 Y102.659 E15.79453
G1 X151.862 Y102.529 E15.79949
G1 X151.903 Y102.398 E15.80405
G1 X151.919 Y102.249 E15.80904
G1 X151.9 Y102.092 E15.8143
G1 X151.853 Y101.952 E15.81921
G1 X151.777 Y101.824 E15.82416
G1 X151.676 Y101.717 E15.82905
G1 X151.555 Y101.63 E15.83401
G1 X151.418 Y101.573 E15.83895
G1 X151.272 Y101.545 E15.84389
G1 X151.125 Y101.547 E15.84878
G1 X150.981 Y101.581 E15.8537
G1 X150.847 Y101.642 E15.8586
G1 X150.729 Y101.731 E15.86351
G1 X150.631 Y101.841 E15.86841
G1 X150.558 Y101.97 E15.87334
G1 X150.513 Y102.115 E15.87839
G1 X150.503 Y102.263 E15.88333
G1 X150.52 Y102.407 E15.88815
G1 X150.567 Y102.548 E15.89309
G1 X150.643 Y102.675 E15.89802
G1 X150.744 Y102.784 E15.90296
G1 X150.866 Y102.87 E15.90792
G0 F6000 X150.653 Y103.255
G0 X153.211 Y103.222
;TYPE:WALL-INNER
G1 F1200 X153.426 Y103.312 E15.91568
G1 X153.653 Y103.356 E15.92337
G1 X153.884 Y103.352 E15.93105
G1 X154.11 Y103.299 E15.93877
G1 X154.315 Y103.205 E15.94627
G1 X154.503 Y103.068 E15.95401
G1 X154.657 Y102.891 E15.96181
G1 X154.771 Y102.688 E15.96956
G1 X154.837 Y102.48 E15.97681
G1 X154.862 Y102.246 E15.98464
G1 X154.832 Y102.003 E15.99278
G1 X154.759 Y101.784 E16.00046
G1 X154.638 Y101.582 E16.00829
G1 X154.547 Y101.485 E16.01272
G1 X154.481 Y101.415 E16.01592
G1 X154.291 Y101.278 E16.02371
G1 X154.074 Y101.188 E16.03152
G1 X153.847 Y101.144 E16.03921
G1 X153.616 Y101.148 E16.0469
G1 X153.391 Y101.201 E16.05459
G1 X153.181 Y101.296 E16.06225
G1 X152.997 Y101.435 E16.06992
G1 X152.95 Y101.488 E16.07228
G1 X152.844 Y101.607 E16.07758
G1 X152.729 Y101.81 E16.08534
G1 X152.672 Y101.993 E16.09171
G1 X152.657 Y102.041 E16.09339
G1 X152.641 Y102.273 E16.10012
G1 X152.66 Y102.435 E16.10464
G1 X152.668 Y102.495 E16.10642
G1 X152.741 Y102.716 E16.11416
G1 X152.861 Y102.916 E16.12192
G1 X153.019 Y103.087 E16.12966
G1 X153.211 Y103.222 E16.13747
G0 F6000 X153.406 Y102.87
;TYPE:WALL-OUTER
G1 F1200 X153.542 Y102.927 E16.14238
G1 X153.688 Y102.955 E16.14732
