;FLAVOR:Marlin
;TIME:970
;Filament used: 0.623287m
;Layer height: 0.2
;MINX:124.362
;MINY:91.014
;MINZ:0.2
;MAXX:175.689
;MAXY:128.983
;MAXZ:7.4
;POSTPROCESSED
;Generated with Cura_SteamEngine 4.4.1
M140 S60
M105
M190 S60
M104 S200
M105
M109 S200
M82 ;absolute extrusion mode
M201 X500.00 Y500.00 Z100.00 E5000.00 ;Setup machine max acceleration
M203 X500.00 Y500.00 Z10.00 E50.00 ;Setup machine max feedrate
M204 P500.00 R1000.00 T500.00 ;Setup Print/Retract/Travel acceleration
M205 X8.00 Y8.00 Z0.40 E5.00 ;Setup Jerk
M220 S100 ;Reset Feedrate
M221 S100 ;Reset Flowrate

G28 ;Home

G92 E0 ;Reset Extruder
G1 Z2.0 F3000 ;Move Z Axis up
G1 X10.1 Y20 Z0.28 F5000.0 ;Move to start position
G1 X10.1 Y200.0 Z0.28 F1500.0 E15 ;Draw the first line
G1 X10.4 Y200.0 Z0.28 F5000.0 ;Move to side a little
G1 X10.4 Y20 Z0.28 F1500.0 E30 ;Draw the second line
G92 E0 ;Reset Extruder
G1 Z2.0 F3000 ;Move Z Axis up

G92 E0
G92 E0
G1 F1500 E-6.5
;LAYER_COUNT:37
;LAYER:0
M107
G0 F6000 X126.874 Y95.447 Z0.2
;TYPE:SKIRT
G1 F1500 E0
G1 F1200 X127.47 Y94.723 E0.03119
G1 X128.125 Y94.052 E0.06238
G1 X128.835 Y93.439 E0.09358
G1 X129.595 Y92.889 E0.12478
G1 X130.801 Y92.197 E0.17102
G1 X130.866 Y92.165 E0.17343
G1 X131.725 Y91.787 E0.20465
G1 X132.612 Y91.484 E0.23582
G1 X133.522 Y91.257 E0.26702
G1 X134.448 Y91.108 E0.29821
G1 X135.513 Y91.036 E0.33372
G1 X136.395 Y91.019 E0.36306
G1 X136.597 Y91.017 E0.36978
G1 X140.025 Y91.014 E0.48379
G1 X140.066 Y91.014 E0.48516
G1 X142.22 Y91.02 E0.5568
G1 X163.982 Y91.02 E1.28061
G1 X164.14 Y91.021 E1.28586
G1 X164.838 Y91.031 E1.30908
G1 X165.774 Y91.085 E1.34026
G1 X166.702 Y91.217 E1.37144
G1 X167.616 Y91.429 E1.40264
G1 X168.508 Y91.718 E1.43383
G1 X169.373 Y92.081 E1.46503
G1 X170.203 Y92.517 E1.49621
G1 X170.994 Y93.022 E1.52743
G1 X171.738 Y93.593 E1.55862
G1 X172.431 Y94.225 E1.58982
G1 X173.068 Y94.913 E1.621
G1 X173.643 Y95.654 E1.6522
G1 X174.154 Y96.44 E1.68338
G1 X174.596 Y97.268 E1.7146
G1 X174.965 Y98.13 E1.74578
G1 X175.26 Y99.02 E1.77697
G1 X175.478 Y99.932 E1.80816
G1 X175.618 Y100.86 E1.83937
G1 X175.675 Y101.708 E1.86764
G1 X175.684 Y102.015 E1.87785
G1 X175.689 Y102.337 E1.88856
G1 X175.689 Y117.244 E2.38437
G1 X175.688 Y117.38 E2.3889
G1 X175.679 Y118.107 E2.41308
G1 X175.628 Y119.044 E2.44429
G1 X175.496 Y119.972 E2.47547
G1 X175.287 Y120.886 E2.50665
G1 X175 Y121.779 E2.53785
G1 X174.638 Y122.645 E2.56907
G1 X174.204 Y123.476 E2.60025
G1 X173.7 Y124.267 E2.63144
G1 X173.131 Y125.012 E2.66262
G1 X172.5 Y125.707 E2.69384
G1 X171.813 Y126.345 E2.72503
G1 X171.074 Y126.922 E2.75621
G1 X170.288 Y127.434 E2.78741
G1 X169.462 Y127.877 E2.81859
G1 X168.6 Y128.249 E2.84981
G1 X167.711 Y128.545 E2.88098
G1 X166.799 Y128.765 E2.91218
G1 X165.872 Y128.906 E2.94337
G1 X164.987 Y128.967 E2.97287
G1 X164.665 Y128.976 E2.98359
G1 X164.359 Y128.98 E2.99376
G1 X136.425 Y128.983 E3.92285
G1 X136.268 Y128.982 E3.92807
G1 X135.562 Y128.972 E3.95156
G1 X134.626 Y128.919 E3.98274
G1 X133.697 Y128.786 E4.01395
G1 X132.784 Y128.574 E4.04513
G1 X131.891 Y128.286 E4.07634
G1 X131.027 Y127.922 E4.10752
G1 X130.196 Y127.487 E4.13872
G1 X129.406 Y126.982 E4.1699
G1 X128.659 Y126.409 E4.20121
G1 X128.512 Y126.286 E4.20759
G1 X127.819 Y125.654 E4.23878
G1 X127.182 Y124.966 E4.26997
G1 X126.607 Y124.225 E4.30116
G1 X126.096 Y123.438 E4.33237
G1 X125.475 Y122.217 E4.37794
G1 X125.321 Y121.861 E4.39084
G1 X124.986 Y120.985 E4.42203
G1 X124.726 Y120.084 E4.45322
G1 X124.545 Y119.164 E4.48441
G1 X124.474 Y118.61 E4.50298
G1 X124.427 Y118.149 E4.51839
G1 X124.375 Y117.352 E4.54496
G1 X124.367 Y117.076 E4.55414
G1 X124.362 Y116.728 E4.56572
G1 X124.363 Y116.345 E4.57846
G1 X124.363 Y103.558 E5.00376
G1 X124.364 Y103.396 E5.00914
G1 X124.372 Y102.852 E5.02724
G1 X124.402 Y102.183 E5.04951
G1 X124.437 Y101.721 E5.06492
G1 X124.548 Y100.79 E5.09611
G1 X124.738 Y99.871 E5.12732
G1 X124.931 Y99.195 E5.1507
G1 X125.014 Y98.936 E5.15975
G1 X125.338 Y98.056 E5.19094
G1 X125.736 Y97.207 E5.22212
G1 X126.204 Y96.394 E5.25332
G1 X126.703 Y95.674 E5.28246
G1 X126.874 Y95.447 E5.29191
G0 F6000 X127.193 Y95.688
G1 F1200 X127.779 Y94.978 E5.32253
G1 X128.424 Y94.32 E5.35318
G1 X129.123 Y93.722 E5.38377
G1 X129.872 Y93.186 E5.41441
G1 X130.978 Y92.556 E5.45674
G1 X131.043 Y92.524 E5.45915
G1 X131.886 Y92.154 E5.48977
G1 X132.758 Y91.858 E5.5204
G1 X133.652 Y91.639 E5.55101
G1 X134.562 Y91.498 E5.58164
G1 X135.521 Y91.436 E5.61361
G1 X136.403 Y91.419 E5.64295
G1 X136.598 Y91.417 E5.64943
G1 X140.026 Y91.414 E5.76345
G1 X140.065 Y91.414 E5.76475
G1 X142.219 Y91.42 E5.83639
G1 X163.982 Y91.42 E6.56023
G1 X164.134 Y91.421 E6.56528
G1 X164.832 Y91.431 E6.5885
G1 X165.751 Y91.484 E6.61912
G1 X166.662 Y91.617 E6.64974
G1 X167.558 Y91.828 E6.68036
G1 X168.432 Y92.116 E6.71096
G1 X169.279 Y92.479 E6.74161
G1 X170.09 Y92.914 E6.77222
G1 X170.86 Y93.418 E6.80283
G1 X171.584 Y93.987 E6.83346
G1 X172.256 Y94.617 E6.86409
G1 X172.871 Y95.302 E6.89471
G1 X173.424 Y96.038 E6.92533
G1 X173.911 Y96.819 E6.95594
G1 X174.328 Y97.64 E6.98657
G1 X174.673 Y98.494 E7.01721
G1 X174.942 Y99.374 E7.04781
G1 X175.134 Y100.275 E7.07845
G1 X175.247 Y101.188 E7.10905
G1 X175.275 Y101.719 E7.12674
G1 X175.284 Y102.026 E7.13695
G1 X175.289 Y102.337 E7.1473
G1 X175.289 Y117.244 E7.64311
G1 X175.288 Y117.375 E7.64746
G1 X175.279 Y118.102 E7.67164
G1 X175.228 Y119.021 E7.70226
G1 X175.097 Y119.933 E7.7329
G1 X174.887 Y120.829 E7.76351
G1 X174.601 Y121.704 E7.79413
G1 X174.24 Y122.551 E7.82475
G1 X173.806 Y123.363 E7.85538
G1 X173.304 Y124.135 E7.886
G1 X172.736 Y124.86 E7.91664
G1 X172.108 Y125.533 E7.94725
G1 X171.424 Y126.149 E7.97787
G1 X170.689 Y126.703 E8.00848
G1 X169.909 Y127.192 E8.0391
G1 X169.089 Y127.611 E8.06973
G1 X168.236 Y127.957 E8.10034
G1 X167.356 Y128.228 E8.13097
G1 X166.456 Y128.421 E8.16158
G1 X165.542 Y128.536 E8.19222
G1 X164.976 Y128.567 E8.21108
G1 X164.654 Y128.576 E8.22179
G1 X164.359 Y128.58 E8.2316
G1 X136.425 Y128.583 E9.16069
G1 X136.274 Y128.582 E9.16571
G1 X135.568 Y128.572 E9.1892
G1 X134.649 Y128.519 E9.21981
G1 X133.738 Y128.386 E9.25044
G1 X132.842 Y128.175 E9.28105
G1 X131.967 Y127.887 E9.31169
G1 X131.121 Y127.524 E9.34231
G1 X130.31 Y127.089 E9.37292
G1 X129.539 Y126.586 E9.40354
G1 X128.916 Y126.103 E9.42976
G1 X128.769 Y125.98 E9.43613
G1 X128.089 Y125.359 E9.46676
G1 X127.466 Y124.681 E9.49738
G1 X126.903 Y123.952 E9.52802
G1 X126.407 Y123.177 E9.55862
G1 X125.842 Y122.059 E9.60029
G1 X125.688 Y121.703 E9.61319
G1 X125.36 Y120.842 E9.64383
G1 X125.107 Y119.957 E9.67445
G1 X124.932 Y119.053 E9.70507
G1 X124.872 Y118.569 E9.72129
G1 X124.825 Y118.108 E9.73671
G1 X124.774 Y117.34 E9.76231
G1 X124.766 Y117.064 E9.77149
G1 X124.762 Y116.729 E9.78263
G1 X124.763 Y116.346 E9.79537
G1 X124.763 Y103.558 E10.2207
G1 X124.764 Y103.402 E10.22589
G1 X124.772 Y102.858 E10.24399
G1 X124.801 Y102.213 E10.26546
G1 X124.836 Y101.751 E10.28087
G1 X124.946 Y100.837 E10.31149
G1 X125.134 Y99.936 E10.3421
G1 X125.312 Y99.317 E10.36353
G1 X125.395 Y99.058 E10.37257
G1 X125.713 Y98.194 E10.40319
G1 X126.106 Y97.362 E10.4338
G1 X126.569 Y96.566 E10.46443
G1 X127.022 Y95.915 E10.4908
G1 X127.193 Y95.688 E10.50026
G0 F6000 X127.513 Y95.929
G1 F1200 X128.088 Y95.232 E10.53031
G1 X128.722 Y94.589 E10.56034
G1 X129.41 Y94.005 E10.59036
G1 X130.148 Y93.484 E10.6204
G1 X131.155 Y92.915 E10.65887
G1 X131.22 Y92.883 E10.66128
G1 X132.047 Y92.52 E10.69132
G1 X132.903 Y92.232 E10.72136
G1 X133.781 Y92.021 E10.7514
G1 X134.674 Y91.888 E10.78142
G1 X135.528 Y91.836 E10.80988
G1 X136.41 Y91.819 E10.83922
G1 X136.598 Y91.817 E10.84548
G1 X140.026 Y91.814 E10.95949
G1 X140.063 Y91.814 E10.96072
G1 X142.217 Y91.82 E11.03236
G1 X163.982 Y91.82 E11.75627
G1 X164.128 Y91.821 E11.76113
G1 X164.826 Y91.831 E11.78435
G1 X165.728 Y91.884 E11.8144
G1 X166.621 Y92.016 E11.84442
G1 X167.499 Y92.227 E11.87446
G1 X168.355 Y92.515 E11.90449
G1 X169.182 Y92.877 E11.93452
G1 X169.974 Y93.312 E11.96457
G1 X170.725 Y93.814 E11.99462
G1 X171.428 Y94.381 E12.02466
G1 X172.078 Y95.008 E12.0547
G1 X172.67 Y95.69 E12.08473
G1 X173.2 Y96.421 E12.11477
G1 X173.662 Y97.197 E12.1448
G1 X174.055 Y98.01 E12.17484
G1 X174.373 Y98.855 E12.20487
G1 X174.616 Y99.725 E12.23491
G1 X174.781 Y100.613 E12.26495
G1 X174.876 Y101.731 E12.30227
G1 X174.885 Y102.038 E12.31248
G1 X174.889 Y102.337 E12.32243
G1 X174.889 Y117.244 E12.81824
G1 X174.888 Y117.37 E12.82243
G1 X174.879 Y118.097 E12.84661
G1 X174.828 Y118.999 E12.87666
G1 X174.697 Y119.893 E12.90671
G1 X174.488 Y120.771 E12.93673
G1 X174.202 Y121.628 E12.96678
G1 X173.841 Y122.456 E12.99682
G1 X173.409 Y123.248 E13.02683
G1 X172.908 Y124 E13.05688
G1 X172.342 Y124.704 E13.08693
G1 X171.717 Y125.355 E13.11694
G1 X171.036 Y125.949 E13.147
G1 X170.305 Y126.48 E13.17705
G1 X169.531 Y126.944 E13.20706
G1 X168.718 Y127.338 E13.23711
G1 X167.874 Y127.658 E13.26713
G1 X167.004 Y127.903 E13.2972
G1 X166.117 Y128.069 E13.32721
G1 X164.965 Y128.167 E13.36566
G1 X164.643 Y128.176 E13.37638
G1 X164.359 Y128.18 E13.38583
G1 X136.425 Y128.183 E14.31491
G1 X136.28 Y128.182 E14.31974
G1 X135.574 Y128.172 E14.34322
G1 X134.672 Y128.119 E14.37327
G1 X133.779 Y127.987 E14.4033
G1 X132.9 Y127.776 E14.43336
G1 X132.044 Y127.488 E14.4634
G1 X131.217 Y127.126 E14.49343
G1 X130.425 Y126.692 E14.52347
G1 X129.675 Y126.19 E14.55348
G1 X129.172 Y125.796 E14.57473
G1 X129.025 Y125.673 E14.58111
G1 X128.359 Y125.063 E14.61115
G1 X127.749 Y124.397 E14.64119
G1 X127.201 Y123.679 E14.67123
G1 X126.718 Y122.916 E14.70126
G1 X126.209 Y121.9 E14.73906
G1 X126.055 Y121.544 E14.75196
G1 X125.734 Y120.7 E14.78199
G1 X125.488 Y119.831 E14.81203
G1 X125.27 Y118.529 E14.85594
G1 X125.223 Y118.068 E14.87135
G1 X125.174 Y117.329 E14.89598
G1 X125.166 Y117.053 E14.90517
G1 X125.162 Y116.73 E14.91591
G1 X125.163 Y116.347 E14.92865
G1 X125.163 Y103.558 E15.35401
G1 X125.164 Y103.408 E15.359
G1 X125.172 Y102.864 E15.3771
G1 X125.2 Y102.243 E15.39777
G1 X125.235 Y101.781 E15.41318
G1 X125.343 Y100.885 E15.4432
G1 X125.53 Y100.001 E15.47325
G1 X125.693 Y99.439 E15.49272
G1 X125.776 Y99.18 E15.50176
G1 X126.089 Y98.333 E15.5318
G1 X126.476 Y97.517 E15.56183
G1 X126.934 Y96.739 E15.59186
G1 X127.342 Y96.156 E15.61553
G1 X127.513 Y95.929 E15.62498
G1 F1500 E9.12498
;MESH:Case 4 v5.stl
G0 F6000 X134.703 Y102.792
G0 X135.782 Y102.893
G0 X137.35 Y113.193
G0 X137.626 Y113.783
G0 X138.988 Y115.417
;TYPE:WALL-INNER
G1 F1500 E15.62498
G1 F1200 X139.428 Y115.489 E15.63981
G1 X139.872 Y115.494 E15.65458
G1 X140.318 Y115.435 E15.66954
G1 X140.752 Y115.307 E15.68459
G1 X141.158 Y115.118 E15.69949
G1 X141.532 Y114.868 E15.71445
G1 X141.861 Y114.569 E15.72924
G1 X142.146 Y114.224 E15.74412
G1 X142.376 Y113.835 E15.75915
G1 X142.545 Y113.421 E15.77402
G1 X142.651 Y112.982 E15.78904
G1 X142.686 Y112.567 E15.8029
G1 X142.689 Y107.463 E15.97266
G1 X142.659 Y107.054 E15.9863
G1 X142.566 Y106.646 E16.00021
G1 X142.411 Y106.232 E16.01492
G1 X142.19 Y105.839 E16.02991
G1 X141.914 Y105.487 E16.04479
G1 X141.59 Y105.176 E16.05973
G1 X141.222 Y104.92 E16.07464
G1 X140.82 Y104.719 E16.08959
G1 X140.39 Y104.583 E16.10459
G1 X139.952 Y104.511 E16.11935
G1 X139.507 Y104.506 E16.13415
G1 X139.06 Y104.565 E16.14915
G1 X138.626 Y104.693 E16.1642
G1 X138.22 Y104.882 E16.17909
G1 X137.846 Y105.132 E16.19405
G1 X137.515 Y105.433 E16.20894
G1 X137.233 Y105.776 E16.2237
G1 X137.002 Y106.163 E16.23869
G1 X136.833 Y106.579 E16.25363
G1 X136.761 Y106.875 E16.26376
G1 X136.727 Y107.018 E16.26865
G1 X136.692 Y107.433 E16.2825
G1 X136.689 Y112.537 E16.45226
G1 X136.719 Y112.946 E16.4659
G1 X136.761 Y113.132 E16.47224
G1 X136.812 Y113.354 E16.47982
G1 X136.968 Y113.77 E16.4946
G1 X137.189 Y114.161 E16.50953
G1 X137.463 Y114.512 E16.52435
G1 X137.788 Y114.822 E16.53928
G1 X138.156 Y115.08 E16.55423
G1 X138.558 Y115.281 E16.56918
G1 X138.988 Y115.417 E16.58418
G0 F6000 X139.081 Y115.027
G1 F1200 X139.463 Y115.089 E16.59705
G1 X139.848 Y115.094 E16.60986
G1 X140.235 Y115.043 E16.62284
G1 X140.61 Y114.932 E16.63585
G1 X140.961 Y114.768 E16.64873
G1 X141.285 Y114.552 E16.66169
G1 X141.571 Y114.292 E16.67454
G1 X141.818 Y113.993 E16.68744
G1 X142.017 Y113.657 E16.70043
G1 X142.163 Y113.298 E16.71332
G1 X142.255 Y112.918 E16.72632
G1 X142.286 Y112.55 E16.73861
G1 X142.289 Y107.478 E16.9073
G1 X142.262 Y107.113 E16.91947
G1 X142.182 Y106.761 E16.93148
G1 X142.047 Y106.401 E16.94427
G1 X141.856 Y106.062 E16.95721
G1 X141.617 Y105.756 E16.97012
G1 X141.336 Y105.487 E16.98306
G1 X141.017 Y105.265 E16.99599
G1 X140.669 Y105.091 E17.00893
G1 X140.297 Y104.973 E17.02191
G1 X139.917 Y104.911 E17.03472
G1 X139.531 Y104.906 E17.04756
G1 X139.143 Y104.957 E17.06057
G1 X138.768 Y105.068 E17.07358
G1 X138.417 Y105.232 E17.08646
G1 X138.093 Y105.448 E17.09942
G1 X137.806 Y105.709 E17.11232
G1 X137.561 Y106.007 E17.12515
G1 X137.361 Y106.342 E17.13813
G1 X137.215 Y106.702 E17.15105
G1 X137.123 Y107.082 E17.16405
G1 X137.092 Y107.45 E17.17633
G1 X137.089 Y112.522 E17.34503
G1 X137.116 Y112.887 E17.3572
G1 X137.196 Y113.239 E17.36921
G1 X137.332 Y113.6 E17.38204
G1 X137.523 Y113.939 E17.39498
G1 X137.76 Y114.243 E17.4078
G1 X138.042 Y114.512 E17.42076
G1 X138.361 Y114.735 E17.43371
G1 X138.709 Y114.909 E17.44665
G1 X139.081 Y115.027 E17.45963
G0 F6000 X139.174 Y114.637
;TYPE:WALL-OUTER
G1 F1200 X139.498 Y114.689 E17.47055
G1 X139.825 Y114.694 E17.48142
G1 X140.151 Y114.651 E17.49236
G1 X140.467 Y114.557 E17.50333
G1 X140.764 Y114.418 E17.51423
G1 X141.038 Y114.236 E17.52517
G1 X141.281 Y114.015 E17.5361
G1 X141.49 Y113.762 E17.54701
G1 X141.658 Y113.479 E17.55796
G1 X141.781 Y113.175 E17.56887
G1 X141.859 Y112.854 E17.57985
G1 X141.886 Y112.533 E17.59057
G1 X141.889 Y107.493 E17.7582
G1 X141.865 Y107.172 E17.7689
G1 X141.798 Y106.876 E17.779
G1 X141.683 Y106.57 E17.78987
G1 X141.522 Y106.284 E17.80079
G1 X141.32 Y106.025 E17.81171
G1 X141.082 Y105.798 E17.82265
G1 X140.812 Y105.61 E17.83359
G1 X140.518 Y105.463 E17.84453
G1 X140.204 Y105.363 E17.85549
G1 X139.882 Y105.311 E17.86633
G1 X139.554 Y105.306 E17.87725
G1 X139.227 Y105.349 E17.88822
G1 X138.911 Y105.443 E17.89918
G1 X138.614 Y105.582 E17.91009
G1 X138.34 Y105.764 E17.92103
G1 X138.097 Y105.985 E17.93195
G1 X137.889 Y106.238 E17.94285
G1 X137.72 Y106.521 E17.95381
G1 X137.597 Y106.825 E17.96472
G1 X137.519 Y107.146 E17.9757
G1 X137.492 Y107.467 E17.98642
G1 X137.489 Y112.507 E18.15405
G1 X137.513 Y112.828 E18.16476
G1 X137.58 Y113.124 E18.17485
G1 X137.695 Y113.43 E18.18572
G1 X137.857 Y113.716 E18.19665
G1 X138.058 Y113.974 E18.20753
G1 X138.296 Y114.202 E18.21849
G1 X138.566 Y114.39 E18.22944
G1 X138.86 Y114.537 E18.24037
G1 X139.174 Y114.637 E18.25133
G0 F6000 X139.073 Y115.065
G0 X136.569 Y113.212
G0 X136.362 Y116.983
;TYPE:WALL-INNER
G1 F1200 X136.362 Y116.784 E18.25795
G1 X136.363 Y116.376 E18.27152
G1 X136.363 Y113.137 E18.37925
G1 X136.363 Y112.946 E18.38526
G1 X136.363 Y112.537 E18.39689
G1 X136.363 Y107.433 E18.53623
G1 X136.363 Y107.018 E18.54821
G1 X136.363 Y106.871 E18.55289
G1 X136.363 Y103.018 E18.68104
G1 X140.033 Y103.014 E18.80311
G1 X142.186 Y103.02 E18.87472
G1 X163.689 Y103.02 E19.58991
G1 X163.689 Y116.98 E20.05422
G1 X136.561 Y116.983 E20.9565
G1 X136.362 Y116.983 E20.96078
G0 F6000 X135.962 Y117.039
G1 F1200 X135.963 Y116.375 E20.98287
G1 X135.963 Y102.901 E21.43102
G1 X135.984 Y102.685 E21.43823
G1 X136.005 Y102.618 E21.44057
G1 X140.034 Y102.614 E21.57457
G1 X142.187 Y102.62 E21.64618
G1 X164.089 Y102.62 E22.37465
G1 X164.089 Y117.38 E22.86557
G1 X136.054 Y117.383 E23.79801
G1 X136.002 Y117.383 E23.79974
G1 X135.994 Y117.361 E23.80052
G1 X135.977 Y117.269 E23.80363
G1 X135.962 Y117.091 E23.80958
G1 X135.962 Y117.039 E23.81131
G0 F6000 X135.763 Y117.783
;TYPE:WALL-OUTER
G1 F1200 X135.748 Y117.769 E23.81199
G1 X135.682 Y117.674 E23.81583
G1 X135.607 Y117.466 E23.82319
G1 X135.579 Y117.318 E23.8282
G1 X135.562 Y117.111 E23.83511
G1 X135.563 Y116.374 E23.85962
G1 X135.563 Y102.884 E24.3083
G1 X135.59 Y102.601 E24.31775
G1 X135.672 Y102.348 E24.3266
G1 X135.765 Y102.218 E24.33192
G1 X140.035 Y102.214 E24.47394
G1 X142.188 Y102.22 E24.54555
