;FLAVOR:Marlin
;TIME:1028
;Filament used: 0.620483m
;Layer height: 0.2
;MINX:124.362
;MINY:91.014
;MINZ:0.2
;MAXX:175.689
;MAXY:128.991
;MAXZ:7.4
;POSTPROCESSED
;Generated with Cura_SteamEngine 4.4.1
M140 S60
M105
M190 S60
M104 S200
M105
M109 S200
M82 ;absolute extrusion mode
M201 X500.00 Y500.00 Z100.00 E5000.00 ;Setup machine max acceleration
M203 X500.00 Y500.00 Z10.00 E50.00 ;Setup machine max feedrate
M204 P500.00 R1000.00 T500.00 ;Setup Print/Retract/Travel acceleration
M205 X8.00 Y8.00 Z0.40 E5.00 ;Setup Jerk
M220 S100 ;Reset Feedrate
M221 S100 ;Reset Flowrate

G28 ;Home

G92 E0 ;Reset Extruder
G1 Z2.0 F3000 ;Move Z Axis up
G1 X10.1 Y20 Z0.28 F5000.0 ;Move to start position
G1 X10.1 Y200.0 Z0.28 F1500.0 E15 ;Draw the first line
G1 X10.4 Y200.0 Z0.28 F5000.0 ;Move to side a little
G1 X10.4 Y20 Z0.28 F1500.0 E30 ;Draw the second line
G92 E0 ;Reset Extruder
G1 Z2.0 F3000 ;Move Z Axis up

G92 E0
G92 E0
G1 F1500 E-6.5
;LAYER_COUNT:37
;LAYER:0
M107
G0 F6000 X126.874 Y95.447 Z0.2
;TYPE:SKIRT
G1 F1500 E0
G1 F1200 X127.47 Y94.723 E0.03119
G1 X128.125 Y94.052 E0.06238
G1 X128.835 Y93.439 E0.09358
G1 X129.595 Y92.889 E0.12478
G1 X130.801 Y92.197 E0.17102
G1 X130.866 Y92.165 E0.17343
G1 X131.725 Y91.787 E0.20465
G1 X132.612 Y91.484 E0.23582
G1 X133.522 Y91.257 E0.26702
G1 X134.448 Y91.108 E0.29821
G1 X135.513 Y91.036 E0.33372
G1 X136.395 Y91.019 E0.36306
G1 X136.597 Y91.017 E0.36978
G1 X140.025 Y91.014 E0.48379
G1 X140.066 Y91.014 E0.48516
G1 X142.22 Y91.02 E0.5568
G1 X163.982 Y91.02 E1.28061
G1 X164.14 Y91.021 E1.28586
G1 X164.838 Y91.031 E1.30908
G1 X165.774 Y91.085 E1.34026
G1 X166.702 Y91.217 E1.37144
G1 X167.616 Y91.429 E1.40264
G1 X168.508 Y91.718 E1.43383
G1 X169.373 Y92.081 E1.46503
G1 X170.203 Y92.517 E1.49621
G1 X170.994 Y93.022 E1.52743
G1 X171.738 Y93.593 E1.55862
G1 X172.431 Y94.225 E1.58982
G1 X173.068 Y94.913 E1.621
G1 X173.643 Y95.654 E1.6522
G1 X174.154 Y96.44 E1.68338
G1 X174.596 Y97.268 E1.7146
G1 X174.965 Y98.13 E1.74578
G1 X175.26 Y99.02 E1.77697
G1 X175.478 Y99.932 E1.80816
G1 X175.618 Y100.86 E1.83937
G1 X175.675 Y101.708 E1.86764
G1 X175.684 Y102.015 E1.87785
G1 X175.689 Y102.337 E1.88856
G1 X175.689 Y117.244 E2.38437
G1 X175.688 Y117.382 E2.38896
G1 X175.679 Y118.097 E2.41275
G1 X175.627 Y119.034 E2.44396
G1 X175.496 Y119.963 E2.47516
G1 X175.286 Y120.877 E2.50636
G1 X174.999 Y121.769 E2.53752
G1 X174.637 Y122.635 E2.56874
G1 X174.202 Y123.466 E2.59994
G1 X173.699 Y124.257 E2.63111
G1 X173.129 Y125.002 E2.66231
G1 X172.499 Y125.696 E2.69349
G1 X171.811 Y126.334 E2.7247
G1 X171.072 Y126.911 E2.75588
G1 X170.286 Y127.423 E2.78708
G1 X169.459 Y127.866 E2.81828
G1 X168.598 Y128.238 E2.84948
G1 X167.708 Y128.534 E2.88068
G1 X166.797 Y128.753 E2.91184
G1 X165.869 Y128.895 E2.94306
G1 X164.929 Y128.956 E2.97439
G1 X163.914 Y128.979 E3.00816
G1 X163.697 Y128.982 E3.01538
G1 X162.652 Y128.985 E3.05014
G1 X159.223 Y128.985 E3.16419
G1 X157.778 Y128.991 E3.21225
G1 X157.645 Y128.991 E3.21667
G1 X157.014 Y128.986 E3.23766
G1 X149.703 Y128.98 E3.48082
G1 X136.378 Y128.983 E3.92401
G1 X136.218 Y128.982 E3.92934
G1 X135.592 Y128.973 E3.95016
G1 X134.656 Y128.919 E3.98134
G1 X133.727 Y128.786 E4.01256
G1 X132.813 Y128.575 E4.04375
G1 X131.921 Y128.286 E4.07494
G1 X131.057 Y127.922 E4.10612
G1 X129.874 Y127.273 E4.151
G1 X129.711 Y127.17 E4.15742
G1 X128.94 Y126.636 E4.18861
G1 X128.218 Y126.038 E4.21979
G1 X127.549 Y125.38 E4.251
G1 X126.938 Y124.668 E4.28221
G1 X126.391 Y123.907 E4.31338
G1 X125.91 Y123.101 E4.3446
G1 X125.549 Y122.371 E4.37168
G1 X125.38 Y121.994 E4.38542
G1 X125.034 Y121.122 E4.41663
G1 X124.762 Y120.224 E4.44783
G1 X124.568 Y119.307 E4.47901
G1 X124.477 Y118.633 E4.50163
G1 X124.429 Y118.172 E4.51705
G1 X124.375 Y117.352 E4.54438
G1 X124.367 Y117.076 E4.55356
G1 X124.362 Y116.728 E4.56514
G1 X124.363 Y116.345 E4.57788
G1 X124.363 Y103.558 E5.00317
G1 X124.364 Y103.396 E5.00856
G1 X124.372 Y102.852 E5.02666
G1 X124.402 Y102.183 E5.04893
G1 X124.437 Y101.721 E5.06434
G1 X124.548 Y100.79 E5.09552
G1 X124.738 Y99.871 E5.12674
G1 X124.931 Y99.195 E5.15012
G1 X125.014 Y98.936 E5.15917
G1 X125.338 Y98.056 E5.19036
G1 X125.736 Y97.207 E5.22154
G1 X126.204 Y96.394 E5.25274
G1 X126.703 Y95.674 E5.28188
G1 X126.874 Y95.447 E5.29133
G0 F6000 X127.193 Y95.688
G1 F1200 X127.779 Y94.978 E5.32195
G1 X128.424 Y94.32 E5.3526
G1 X129.123 Y93.722 E5.38319
G1 X129.872 Y93.186 E5.41383
G1 X130.978 Y92.556 E5.45616
G1 X131.043 Y92.524 E5.45857
G1 X131.886 Y92.154 E5.48919
G1 X132.758 Y91.858 E5.51982
G1 X133.652 Y91.639 E5.55043
G1 X134.562 Y91.498 E5.58106
G1 X135.521 Y91.436 E5.61302
G1 X136.403 Y91.419 E5.64236
G1 X136.598 Y91.417 E5.64885
G1 X140.026 Y91.414 E5.76287
G1 X140.065 Y91.414 E5.76416
G1 X142.219 Y91.42 E5.83581
G1 X163.982 Y91.42 E6.55965
G1 X164.134 Y91.421 E6.5647
G1 X164.832 Y91.431 E6.58792
G1 X165.751 Y91.484 E6.61854
G1 X166.662 Y91.617 E6.64916
G1 X167.558 Y91.828 E6.67977
G1 X168.432 Y92.116 E6.71038
G1 X169.279 Y92.479 E6.74103
G1 X170.09 Y92.914 E6.77164
G1 X170.86 Y93.418 E6.80225
G1 X171.584 Y93.987 E6.83288
G1 X172.256 Y94.617 E6.86351
G1 X172.871 Y95.302 E6.89413
G1 X173.424 Y96.038 E6.92475
G1 X173.911 Y96.819 E6.95536
G1 X174.328 Y97.64 E6.98599
G1 X174.673 Y98.494 E7.01662
G1 X174.942 Y99.374 E7.04723
G1 X175.134 Y100.275 E7.07787
G1 X175.247 Y101.188 E7.10847
G1 X175.275 Y101.719 E7.12615
G1 X175.284 Y102.026 E7.13637
G1 X175.289 Y102.337 E7.14671
G1 X175.289 Y117.244 E7.64252
G1 X175.288 Y117.377 E7.64695
G1 X175.279 Y118.092 E7.67073
G1 X175.228 Y119.012 E7.70138
G1 X175.096 Y119.923 E7.73199
G1 X174.887 Y120.819 E7.76259
G1 X174.6 Y121.694 E7.79322
G1 X174.239 Y122.541 E7.82385
G1 X173.805 Y123.353 E7.85447
G1 X173.302 Y124.124 E7.88509
G1 X172.735 Y124.849 E7.9157
G1 X172.107 Y125.522 E7.94631
G1 X171.422 Y126.138 E7.97695
G1 X170.687 Y126.692 E8.00757
G1 X169.907 Y127.181 E8.03819
G1 X169.087 Y127.6 E8.06881
G1 X168.234 Y127.946 E8.09943
G1 X167.354 Y128.216 E8.13005
G1 X166.454 Y128.41 E8.16067
G1 X165.54 Y128.524 E8.1913
G1 X164.92 Y128.556 E8.21195
G1 X163.905 Y128.579 E8.24572
G1 X163.695 Y128.582 E8.25271
G1 X162.65 Y128.585 E8.28746
G1 X159.221 Y128.585 E8.40151
G1 X157.776 Y128.591 E8.44957
G1 X157.648 Y128.591 E8.45383
G1 X157.017 Y128.586 E8.47482
G1 X149.703 Y128.58 E8.71808
G1 X136.378 Y128.583 E9.16127
G1 X136.224 Y128.582 E9.1664
G1 X135.598 Y128.573 E9.18722
G1 X134.679 Y128.52 E9.21784
G1 X133.767 Y128.387 E9.24849
G1 X132.871 Y128.176 E9.27911
G1 X131.997 Y127.887 E9.30972
G1 X131.151 Y127.524 E9.34034
G1 X130.088 Y126.935 E9.38076
G1 X129.925 Y126.832 E9.38718
G1 X129.168 Y126.307 E9.41782
G1 X128.461 Y125.718 E9.44842
G1 X127.807 Y125.07 E9.47904
G1 X127.211 Y124.368 E9.50967
G1 X126.679 Y123.616 E9.54031
G1 X126.214 Y122.822 E9.57091
G1 X125.914 Y122.207 E9.59367
G1 X125.745 Y121.83 E9.60741
G1 X125.406 Y120.974 E9.63804
G1 X125.141 Y120.092 E9.66867
G1 X124.955 Y119.191 E9.69927
G1 X124.875 Y118.592 E9.71937
G1 X124.827 Y118.131 E9.73478
G1 X124.774 Y117.34 E9.76115
G1 X124.766 Y117.064 E9.77033
G1 X124.762 Y116.729 E9.78148
G1 X124.763 Y116.346 E9.79421
G1 X124.763 Y103.558 E10.21955
G1 X124.764 Y103.402 E10.22473
G1 X124.772 Y102.858 E10.24283
G1 X124.801 Y102.213 E10.2643
G1 X124.836 Y101.751 E10.27971
G1 X124.946 Y100.837 E10.31033
G1 X125.134 Y99.936 E10.34095
G1 X125.312 Y99.317 E10.36237
G1 X125.395 Y99.058 E10.37141
G1 X125.713 Y98.194 E10.40204
G1 X126.106 Y97.362 E10.43264
G1 X126.569 Y96.566 E10.46327
G1 X127.022 Y95.915 E10.48965
G1 X127.193 Y95.688 E10.4991
G0 F6000 X127.513 Y95.929
G1 F1200 X128.088 Y95.232 E10.52915
G1 X128.722 Y94.589 E10.55919
G1 X129.41 Y94.005 E10.5892
G1 X130.148 Y93.484 E10.61925
G1 X131.155 Y92.915 E10.65772
G1 X131.22 Y92.883 E10.66013
G1 X132.047 Y92.52 E10.69017
G1 X132.903 Y92.232 E10.72021
G1 X133.781 Y92.021 E10.75024
G1 X134.674 Y91.888 E10.78027
G1 X135.528 Y91.836 E10.80872
G1 X136.41 Y91.819 E10.83807
G1 X136.598 Y91.817 E10.84432
G1 X140.026 Y91.814 E10.95833
G1 X140.063 Y91.814 E10.95957
G1 X142.217 Y91.82 E11.03121
G1 X163.982 Y91.82 E11.75511
G1 X164.128 Y91.821 E11.75997
G1 X164.826 Y91.831 E11.78319
G1 X165.728 Y91.884 E11.81324
G1 X166.621 Y92.016 E11.84327
G1 X167.499 Y92.227 E11.8733
G1 X168.355 Y92.515 E11.90334
G1 X169.182 Y92.877 E11.93336
G1 X169.974 Y93.312 E11.96342
G1 X170.725 Y93.814 E11.99346
G1 X171.428 Y94.381 E12.0235
G1 X172.078 Y95.008 E12.05354
G1 X172.67 Y95.69 E12.08358
G1 X173.2 Y96.421 E12.11361
G1 X173.662 Y97.197 E12.14365
G1 X174.055 Y98.01 E12.17368
G1 X174.373 Y98.855 E12.20371
G1 X174.616 Y99.725 E12.23375
G1 X174.781 Y100.613 E12.26379
G1 X174.876 Y101.731 E12.30111
G1 X174.885 Y102.038 E12.31133
G1 X174.889 Y102.337 E12.32127
G1 X174.889 Y117.244 E12.81708
G1 X174.888 Y117.372 E12.82134
G1 X174.879 Y118.087 E12.84512
G1 X174.828 Y118.989 E12.87517
G1 X174.697 Y119.883 E12.90522
G1 X174.488 Y120.761 E12.93524
G1 X174.201 Y121.618 E12.9653
G1 X173.84 Y122.445 E12.99531
G1 X173.408 Y123.238 E13.02535
G1 X172.906 Y123.989 E13.05539
G1 X172.341 Y124.693 E13.08542
G1 X171.715 Y125.345 E13.11548
G1 X171.034 Y125.938 E13.14551
G1 X170.304 Y126.469 E13.17554
G1 X169.529 Y126.933 E13.20558
G1 X168.716 Y127.327 E13.23563
G1 X167.872 Y127.647 E13.26565
G1 X167.002 Y127.891 E13.2957
G1 X166.115 Y128.058 E13.32572
G1 X164.911 Y128.156 E13.3659
G1 X163.896 Y128.179 E13.39967
G1 X163.694 Y128.182 E13.40639
G1 X162.649 Y128.185 E13.44115
G1 X159.219 Y128.185 E13.55523
G1 X157.774 Y128.191 E13.60329
G1 X157.651 Y128.191 E13.60738
G1 X157.02 Y128.186 E13.62837
G1 X149.704 Y128.18 E13.8717
G1 X136.378 Y128.183 E14.31492
G1 X136.229 Y128.182 E14.31988
G1 X135.603 Y128.173 E14.3407
G1 X134.702 Y128.12 E14.37072
G1 X133.808 Y127.988 E14.40078
G1 X132.93 Y127.777 E14.43081
G1 X132.074 Y127.489 E14.46085
G1 X131.247 Y127.126 E14.49089
G1 X130.301 Y126.597 E14.52694
G1 X130.138 Y126.494 E14.53335
G1 X129.397 Y125.978 E14.56339
G1 X128.704 Y125.399 E14.59342
G1 X128.065 Y124.76 E14.62348
G1 X127.485 Y124.068 E14.65351
G1 X126.969 Y123.327 E14.68354
G1 X126.52 Y122.543 E14.71359
G1 X126.279 Y122.043 E14.73205
G1 X126.11 Y121.666 E14.74579
G1 X125.778 Y120.827 E14.7758
G1 X125.521 Y119.961 E14.80585
G1 X125.341 Y119.076 E14.83589
G1 X125.273 Y118.55 E14.85353
G1 X125.225 Y118.089 E14.86894
G1 X125.174 Y117.329 E14.89428
G1 X125.166 Y117.053 E14.90346
G1 X125.162 Y116.73 E14.9142
G1 X125.163 Y116.347 E14.92694
G1 X125.163 Y103.558 E15.35231
G1 X125.164 Y103.408 E15.3573
G1 X125.172 Y102.864 E15.37539
G1 X125.2 Y102.243 E15.39607
G1 X125.235 Y101.781 E15.41148
G1 X125.343 Y100.885 E15.44149
G1 X125.53 Y100.001 E15.47155
G1 X125.693 Y99.439 E15.49101
G1 X125.776 Y99.18 E15.50006
G1 X126.089 Y98.333 E15.53009
G1 X126.476 Y97.517 E15.56013
G1 X126.934 Y96.739 E15.59015
G1 X127.342 Y96.156 E15.61382
G1 X127.513 Y95.929 E15.62327
G1 F1500 E9.12327
;MESH:Case 4 v9.stl
G0 F6000 X134.703 Y102.792
G0 X135.782 Y102.893
G0 X137.35 Y113.193
G0 X137.626 Y113.783
G0 X138.988 Y115.417
;TYPE:WALL-INNER
G1 F1500 E15.62327
G1 F1200 X139.428 Y115.489 E15.6381
G1 X139.872 Y115.494 E15.65287
G1 X140.318 Y115.435 E15.66783
G1 X140.752 Y115.307 E15.68288
G1 X141.158 Y115.118 E15.69778
G1 X141.532 Y114.868 E15.71274
G1 X141.861 Y114.569 E15.72753
G1 X142.146 Y114.224 E15.74241
G1 X142.376 Y113.835 E15.75744
G1 X142.545 Y113.421 E15.77232
G1 X142.651 Y112.982 E15.78734
G1 X142.686 Y112.567 E15.80119
G1 X142.689 Y107.463 E15.97095
G1 X142.659 Y107.054 E15.98459
G1 X142.566 Y106.646 E15.99851
G1 X142.411 Y106.232 E16.01321
G1 X142.19 Y105.839 E16.02821
G1 X141.914 Y105.487 E16.04308
G1 X141.59 Y105.176 E16.05802
G1 X141.222 Y104.92 E16.07293
G1 X140.82 Y104.719 E16.08788
G1 X140.39 Y104.583 E16.10288
G1 X139.952 Y104.511 E16.11764
G1 X139.507 Y104.506 E16.13244
G1 X139.06 Y104.565 E16.14744
G1 X138.626 Y104.693 E16.16249
G1 X138.22 Y104.882 E16.17739
G1 X137.846 Y105.132 E16.19235
G1 X137.515 Y105.433 E16.20723
G1 X137.233 Y105.776 E16.222
G1 X137.002 Y106.163 E16.23699
G1 X136.833 Y106.579 E16.25192
G1 X136.761 Y106.875 E16.26205
G1 X136.727 Y107.018 E16.26694
G1 X136.692 Y107.433 E16.28079
G1 X136.689 Y112.537 E16.45055
G1 X136.719 Y112.946 E16.46419
G1 X136.761 Y113.132 E16.47054
G1 X136.812 Y113.354 E16.47811
G1 X136.968 Y113.77 E16.49289
G1 X137.189 Y114.161 E16.50783
G1 X137.463 Y114.512 E16.52264
G1 X137.788 Y114.822 E16.53758
G1 X138.156 Y115.08 E16.55252
G1 X138.558 Y115.281 E16.56747
G1 X138.988 Y115.417 E16.58247
G0 F6000 X139.081 Y115.027
G1 F1200 X139.463 Y115.089 E16.59534
G1 X139.848 Y115.094 E16.60815
G1 X140.235 Y115.043 E16.62113
G1 X140.61 Y114.932 E16.63414
G1 X140.961 Y114.768 E16.64703
G1 X141.285 Y114.552 E16.65998
G1 X141.571 Y114.292 E16.67283
G1 X141.818 Y113.993 E16.68573
G1 X142.017 Y113.657 E16.69872
G1 X142.163 Y113.298 E16.71161
G1 X142.255 Y112.918 E16.72462
G1 X142.286 Y112.55 E16.7369
G1 X142.289 Y107.478 E16.90559
G1 X142.262 Y107.113 E16.91777
G1 X142.182 Y106.761 E16.92977
G1 X142.047 Y106.401 E16.94256
G1 X141.856 Y106.062 E16.9555
G1 X141.617 Y105.756 E16.96842
G1 X141.336 Y105.487 E16.98136
G1 X141.017 Y105.265 E16.99428
G1 X140.669 Y105.091 E17.00722
G1 X140.297 Y104.973 E17.0202
G1 X139.917 Y104.911 E17.03301
G1 X139.531 Y104.906 E17.04585
G1 X139.143 Y104.957 E17.05886
G1 X138.768 Y105.068 E17.07187
G1 X138.417 Y105.232 E17.08476
G1 X138.093 Y105.448 E17.09771
G1 X137.806 Y105.709 E17.11061
G1 X137.561 Y106.007 E17.12344
G1 X137.361 Y106.342 E17.13642
G1 X137.215 Y106.702 E17.14934
G1 X137.123 Y107.082 E17.16234
G1 X137.092 Y107.45 E17.17463
G1 X137.089 Y112.522 E17.34332
G1 X137.116 Y112.887 E17.3555
G1 X137.196 Y113.239 E17.3675
G1 X137.332 Y113.6 E17.38033
G1 X137.523 Y113.939 E17.39327
G1 X137.76 Y114.243 E17.4061
G1 X138.042 Y114.512 E17.41906
G1 X138.361 Y114.735 E17.432
G1 X138.709 Y114.909 E17.44494
G1 X139.081 Y115.027 E17.45792
G0 F6000 X139.174 Y114.637
;TYPE:WALL-OUTER
G1 F1200 X139.498 Y114.689 E17.46884
G1 X139.825 Y114.694 E17.47972
G1 X140.151 Y114.651 E17.49065
G1 X140.467 Y114.557 E17.50162
G1 X140.764 Y114.418 E17.51252
G1 X141.038 Y114.236 E17.52346
G1 X141.281 Y114.015 E17.53439
G1 X141.49 Y113.762 E17.5453
G1 X141.658 Y113.479 E17.55625
G1 X141.781 Y113.175 E17.56716
G1 X141.859 Y112.854 E17.57815
G1 X141.886 Y112.533 E17.58886
G1 X141.889 Y107.493 E17.75649
G1 X141.865 Y107.172 E17.7672
G1 X141.798 Y106.876 E17.77729
G1 X141.683 Y106.57 E17.78816
G1 X141.522 Y106.284 E17.79908
G1 X141.32 Y106.025 E17.81
G1 X141.082 Y105.798 E17.82094
G1 X140.812 Y105.61 E17.83189
G1 X140.518 Y105.463 E17.84282
G1 X140.204 Y105.363 E17.85378
G1 X139.882 Y105.311 E17.86463
G1 X139.554 Y105.306 E17.87554
G1 X139.227 Y105.349 E17.88651
G1 X138.911 Y105.443 E17.89747
G1 X138.614 Y105.582 E17.90838
G1 X138.34 Y105.764 E17.91932
G1 X138.097 Y105.985 E17.93025
G1 X137.889 Y106.238 E17.94114
G1 X137.72 Y106.521 E17.9521
G1 X137.597 Y106.825 E17.96301
G1 X137.519 Y107.146 E17.974
G1 X137.492 Y107.467 E17.98471
G1 X137.489 Y112.507 E18.15234
G1 X137.513 Y112.828 E18.16305
G1 X137.58 Y113.124 E18.17314
G1 X137.695 Y113.43 E18.18401
G1 X137.857 Y113.716 E18.19495
G1 X138.058 Y113.974 E18.20583
G1 X138.296 Y114.202 E18.21679
G1 X138.566 Y114.39 E18.22773
G1 X138.86 Y114.537 E18.23866
G1 X139.174 Y114.637 E18.24962
G0 F6000 X139.073 Y115.065
G0 X136.569 Y113.212
G0 X136.544 Y116.801
G0 X146.357 Y116.786
G0 X147.112 Y116.601
;TYPE:WALL-INNER
G1 F1200 X147.435 Y116.706 E18.26092
G1 X147.774 Y116.727 E18.27222
G1 X148.109 Y116.663 E18.28356
G1 X148.415 Y116.518 E18.29482
G1 X148.677 Y116.302 E18.30612
G1 X148.875 Y116.027 E18.31739
G1 X149.001 Y115.713 E18.32864
G1 X149.044 Y115.375 E18.33997
G1 X149.001 Y115.037 E18.35131
G1 X148.875 Y114.723 E18.36256
G1 X148.677 Y114.448 E18.37383
G1 X148.415 Y114.232 E18.38512
G1 X148.109 Y114.087 E18.39639
G1 X147.774 Y114.023 E18.40773
G1 X147.435 Y114.044 E18.41903
G1 X147.112 Y114.149 E18.43032
G1 X146.826 Y114.331 E18.4416
G1 X146.593 Y114.579 E18.45291
G1 X146.43 Y114.877 E18.46421
G1 X146.345 Y115.205 E18.47548
G1 X146.345 Y115.545 E18.48679
G1 X146.43 Y115.873 E18.49806
G1 X146.593 Y116.171 E18.50936
