;FLAVOR:Marlin
;TIME:1032
;Filament used: 0.619537m
;Layer height: 0.2
;MINX:124.16
;MINY:91.014
;MINZ:0.2
;MAXX:176
;MAXY:128.991
;MAXZ:7.4
;POSTPROCESSED
;Generated with Cura_SteamEngine 4.4.1
M140 S60
M105
M190 S60
M104 S200
M105
M109 S200
M82 ;absolute extrusion mode
M201 X500.00 Y500.00 Z100.00 E5000.00 ;Setup machine max acceleration
M203 X500.00 Y500.00 Z10.00 E50.00 ;Setup machine max feedrate
M204 P500.00 R1000.00 T500.00 ;Setup Print/Retract/Travel acceleration
M205 X8.00 Y8.00 Z0.40 E5.00 ;Setup Jerk
M220 S100 ;Reset Feedrate
M221 S100 ;Reset Flowrate

G28 ;Home

G92 E0 ;Reset Extruder
G1 Z2.0 F3000 ;Move Z Axis up
G1 X10.1 Y20 Z0.28 F5000.0 ;Move to start position
G1 X10.1 Y200.0 Z0.28 F1500.0 E15 ;Draw the first line
G1 X10.4 Y200.0 Z0.28 F5000.0 ;Move to side a little
G1 X10.4 Y20 Z0.28 F1500.0 E30 ;Draw the second line
G92 E0 ;Reset Extruder
G1 Z2.0 F3000 ;Move Z Axis up

G92 E0
G92 E0
G1 F1500 E-6.5
;LAYER_COUNT:37
;LAYER:0
M107
G0 F6000 X126.168 Y95.708 Z0.2
;TYPE:SKIRT
G1 F1500 E0
G1 F1200 X126.739 Y94.964 E0.03119
G1 X127.371 Y94.272 E0.06236
G1 X128.06 Y93.635 E0.09357
G1 X128.801 Y93.06 E0.12477
G1 X129.588 Y92.55 E0.15596
G1 X130.416 Y92.109 E0.18716
G1 X131.278 Y91.74 E0.21835
G1 X132.168 Y91.446 E0.24952
G1 X133.081 Y91.228 E0.28074
G1 X134.008 Y91.09 E0.31192
G1 X134.834 Y91.033 E0.33945
G1 X135.16 Y91.023 E0.3503
G1 X135.487 Y91.018 E0.36118
G1 X140.049 Y91.014 E0.51291
G1 X140.086 Y91.014 E0.51414
G1 X142.527 Y91.02 E0.59533
G1 X164.293 Y91.02 E1.31927
G1 X164.451 Y91.021 E1.32453
G1 X165.149 Y91.031 E1.34774
G1 X166.085 Y91.085 E1.37893
G1 X167.013 Y91.217 E1.4101
G1 X167.927 Y91.429 E1.44131
G1 X168.819 Y91.718 E1.4725
G1 X169.684 Y92.081 E1.5037
G1 X170.514 Y92.517 E1.53488
G1 X171.305 Y93.022 E1.56609
G1 X172.049 Y93.593 E1.59729
G1 X172.742 Y94.225 E1.62848
G1 X173.379 Y94.913 E1.65967
G1 X173.954 Y95.654 E1.69086
G1 X174.465 Y96.44 E1.72204
G1 X174.907 Y97.268 E1.75326
G1 X175.276 Y98.13 E1.78445
G1 X175.571 Y99.02 E1.81563
G1 X175.789 Y99.932 E1.84682
G1 X175.929 Y100.86 E1.87804
G1 X175.987 Y101.718 E1.90664
G1 X175.996 Y102.035 E1.91719
G1 X176 Y102.347 E1.92756
G1 X176 Y117.244 E2.42304
G1 X175.999 Y117.382 E2.42763
G1 X175.99 Y118.097 E2.45141
G1 X175.938 Y119.034 E2.48263
G1 X175.807 Y119.963 E2.51383
G1 X175.597 Y120.877 E2.54502
G1 X175.31 Y121.769 E2.57619
G1 X174.948 Y122.635 E2.60741
G1 X174.513 Y123.466 E2.6386
G1 X174.01 Y124.257 E2.66978
G1 X173.44 Y125.002 E2.70098
G1 X172.81 Y125.696 E2.73215
G1 X172.122 Y126.334 E2.76336
G1 X171.383 Y126.911 E2.79455
G1 X170.597 Y127.423 E2.82575
G1 X169.77 Y127.866 E2.85695
G1 X168.909 Y128.238 E2.88815
G1 X168.019 Y128.534 E2.91934
G1 X167.108 Y128.753 E2.9505
G1 X166.18 Y128.895 E2.98173
G1 X165.24 Y128.956 E3.01306
G1 X164.225 Y128.979 E3.04683
G1 X164.008 Y128.982 E3.05405
G1 X162.963 Y128.985 E3.0888
G1 X159.534 Y128.985 E3.20285
G1 X158.089 Y128.991 E3.25091
G1 X157.956 Y128.991 E3.25534
G1 X157.325 Y128.986 E3.27632
G1 X150.013 Y128.98 E3.51952
G1 X135.827 Y128.983 E3.99135
G1 X135.671 Y128.982 E3.99654
G1 X135.028 Y128.973 E4.01793
G1 X134.092 Y128.92 E4.04911
G1 X133.163 Y128.787 E4.08032
G1 X132.249 Y128.576 E4.11152
G1 X131.357 Y128.288 E4.1427
G1 X130.492 Y127.924 E4.17391
G1 X129.662 Y127.489 E4.20508
G1 X128.871 Y126.984 E4.23629
G1 X128.127 Y126.413 E4.26749
G1 X127.434 Y125.782 E4.29866
G1 X126.797 Y125.093 E4.32987
G1 X126.221 Y124.353 E4.36106
G1 X125.71 Y123.567 E4.39224
G1 X125.268 Y122.74 E4.42343
G1 X124.898 Y121.878 E4.45463
G1 X124.603 Y120.987 E4.48584
G1 X124.385 Y120.075 E4.51703
G1 X124.245 Y119.148 E4.54821
G1 X124.203 Y118.66 E4.5645
G1 X124.182 Y118.324 E4.5757
G1 X124.161 Y117.645 E4.5983
G1 X124.16 Y116.043 E4.65158
G1 X124.16 Y116.035 E4.65184
G1 X124.161 Y102.693 E5.0956
G1 X124.162 Y102.529 E5.10106
G1 X124.172 Y101.863 E5.12321
G1 X124.226 Y100.927 E5.15439
G1 X124.36 Y99.998 E5.18561
G1 X124.572 Y99.085 E5.21679
G1 X124.861 Y98.193 E5.24797
G1 X125.226 Y97.328 E5.2792
G1 X125.662 Y96.498 E5.31038
G1 X126.168 Y95.708 E5.34159
G0 F6000 X126.564 Y95.842
G1 F1200 X127.133 Y95.118 E5.37221
G1 X127.763 Y94.447 E5.40282
G1 X128.449 Y93.832 E5.43347
G1 X129.185 Y93.28 E5.46407
G1 X129.967 Y92.794 E5.49469
G1 X130.788 Y92.377 E5.52532
G1 X131.642 Y92.033 E5.55594
G1 X132.522 Y91.764 E5.58655
G1 X133.423 Y91.573 E5.61718
G1 X134.337 Y91.461 E5.64781
G1 X134.846 Y91.433 E5.66476
G1 X135.172 Y91.423 E5.67561
G1 X135.488 Y91.418 E5.68612
G1 X140.05 Y91.414 E5.83785
G1 X140.085 Y91.414 E5.83902
G1 X142.526 Y91.42 E5.92021
G1 X164.293 Y91.42 E6.64418
G1 X164.445 Y91.421 E6.64923
G1 X165.143 Y91.431 E6.67245
G1 X166.062 Y91.484 E6.70307
G1 X166.973 Y91.617 E6.73369
G1 X167.869 Y91.828 E6.76431
G1 X168.743 Y92.116 E6.79491
G1 X169.59 Y92.479 E6.82556
G1 X170.401 Y92.914 E6.85617
G1 X171.171 Y93.418 E6.88678
G1 X171.895 Y93.987 E6.91741
G1 X172.567 Y94.617 E6.94804
G1 X173.182 Y95.302 E6.97866
G1 X173.735 Y96.038 E7.00928
G1 X174.222 Y96.819 E7.03989
G1 X174.639 Y97.64 E7.07052
G1 X174.984 Y98.494 E7.10116
G1 X175.253 Y99.374 E7.13176
G1 X175.445 Y100.275 E7.1624
G1 X175.558 Y101.188 E7.193
G1 X175.587 Y101.729 E7.21102
G1 X175.596 Y102.046 E7.22157
G1 X175.6 Y102.347 E7.23158
G1 X175.6 Y117.244 E7.72706
G1 X175.599 Y117.377 E7.73148
G1 X175.59 Y118.092 E7.75526
G1 X175.539 Y119.012 E7.78591
G1 X175.407 Y119.923 E7.81653
G1 X175.198 Y120.819 E7.84713
G1 X174.911 Y121.694 E7.87775
G1 X174.55 Y122.541 E7.90838
G1 X174.116 Y123.353 E7.939
G1 X173.613 Y124.124 E7.96962
G1 X173.046 Y124.849 E8.00023
G1 X172.418 Y125.522 E8.03085
G1 X171.733 Y126.138 E8.06149
G1 X170.998 Y126.692 E8.0921
G1 X170.218 Y127.181 E8.12272
G1 X169.398 Y127.6 E8.15335
G1 X168.545 Y127.946 E8.18396
G1 X167.665 Y128.216 E8.21458
G1 X166.765 Y128.41 E8.2452
G1 X165.851 Y128.524 E8.27584
G1 X165.231 Y128.556 E8.29648
G1 X164.216 Y128.579 E8.33025
G1 X164.006 Y128.582 E8.33724
G1 X162.961 Y128.585 E8.372
G1 X159.532 Y128.585 E8.48604
G1 X158.087 Y128.591 E8.53411
G1 X157.959 Y128.591 E8.53836
G1 X157.328 Y128.586 E8.55935
G1 X150.013 Y128.58 E8.80265
G1 X135.827 Y128.583 E9.27448
G1 X135.677 Y128.582 E9.27947
G1 X135.034 Y128.573 E9.30085
G1 X134.115 Y128.52 E9.33147
G1 X133.203 Y128.388 E9.36212
G1 X132.307 Y128.177 E9.39274
G1 X131.433 Y127.889 E9.42334
G1 X130.587 Y127.526 E9.45396
G1 X129.775 Y127.091 E9.4846
G1 X129.004 Y126.588 E9.51522
G1 X128.28 Y126.019 E9.54585
G1 X127.608 Y125.39 E9.57646
G1 X126.993 Y124.705 E9.60708
G1 X126.44 Y123.969 E9.6377
G1 X125.953 Y123.188 E9.66831
G1 X125.535 Y122.367 E9.69895
G1 X125.19 Y121.514 E9.72956
G1 X124.921 Y120.633 E9.76019
G1 X124.729 Y119.733 E9.7908
G1 X124.603 Y118.635 E9.82756
G1 X124.582 Y118.299 E9.83876
G1 X124.561 Y117.645 E9.86052
G1 X124.56 Y116.043 E9.9138
G1 X124.56 Y116.035 E9.91407
G1 X124.561 Y102.693 E10.35783
G1 X124.562 Y102.535 E10.36308
G1 X124.572 Y101.869 E10.38524
G1 X124.626 Y100.95 E10.41585
G1 X124.759 Y100.039 E10.44648
G1 X124.971 Y99.143 E10.4771
G1 X125.26 Y98.269 E10.50772
G1 X125.624 Y97.423 E10.53835
G1 X126.059 Y96.612 E10.56896
G1 X126.564 Y95.842 E10.59959
G0 F6000 X126.959 Y95.978
G1 F1200 X127.527 Y95.275 E10.62965
G1 X128.154 Y94.625 E10.65968
G1 X128.836 Y94.034 E10.6897
G1 X129.568 Y93.505 E10.71974
G1 X130.344 Y93.042 E10.74979
G1 X131.158 Y92.651 E10.77983
G1 X132.003 Y92.332 E10.80987
G1 X132.873 Y92.09 E10.8399
G1 X133.761 Y91.926 E10.86994
G1 X134.858 Y91.833 E10.90655
G1 X135.184 Y91.823 E10.9174
G1 X135.488 Y91.818 E10.92752
G1 X140.05 Y91.814 E11.07925
G1 X140.084 Y91.814 E11.08038
G1 X142.525 Y91.82 E11.16157
G1 X164.293 Y91.82 E11.88557
G1 X164.439 Y91.821 E11.89043
G1 X165.137 Y91.831 E11.91365
G1 X166.039 Y91.884 E11.9437
G1 X166.932 Y92.016 E11.97372
G1 X167.81 Y92.227 E12.00376
G1 X168.666 Y92.515 E12.0338
G1 X169.493 Y92.877 E12.06382
G1 X170.285 Y93.312 E12.09388
G1 X171.036 Y93.814 E12.12392
G1 X171.739 Y94.381 E12.15396
G1 X172.389 Y95.008 E12.184
G1 X172.981 Y95.69 E12.21404
G1 X173.511 Y96.421 E12.24407
G1 X173.973 Y97.197 E12.2741
G1 X174.366 Y98.01 E12.30414
G1 X174.684 Y98.855 E12.33417
G1 X174.927 Y99.725 E12.36421
G1 X175.092 Y100.613 E12.39425
G1 X175.187 Y101.741 E12.4319
G1 X175.196 Y102.058 E12.44245
G1 X175.2 Y102.347 E12.45206
G1 X175.2 Y117.244 E12.94754
G1 X175.199 Y117.372 E12.9518
G1 X175.19 Y118.087 E12.97558
G1 X175.139 Y118.989 E13.00563
G1 X175.008 Y119.883 E13.03568
G1 X174.799 Y120.761 E13.0657
G1 X174.512 Y121.618 E13.09576
G1 X174.151 Y122.445 E13.12577
G1 X173.719 Y123.238 E13.15581
G1 X173.217 Y123.989 E13.18585
G1 X172.652 Y124.693 E13.21587
G1 X172.026 Y125.345 E13.24594
G1 X171.345 Y125.938 E13.27597
G1 X170.615 Y126.469 E13.306
G1 X169.84 Y126.933 E13.33604
G1 X169.027 Y127.327 E13.36609
G1 X168.183 Y127.647 E13.39611
G1 X167.313 Y127.891 E13.42616
G1 X166.426 Y128.058 E13.45618
G1 X165.222 Y128.156 E13.49636
G1 X164.207 Y128.179 E13.53013
G1 X164.005 Y128.182 E13.53685
G1 X162.96 Y128.185 E13.5716
G1 X159.53 Y128.185 E13.68569
G1 X158.085 Y128.191 E13.73375
G1 X157.962 Y128.191 E13.73784
G1 X157.331 Y128.186 E13.75883
G1 X150.014 Y128.18 E14.00219
G1 X135.827 Y128.183 E14.47405
G1 X135.682 Y128.182 E14.47887
G1 X135.039 Y128.173 E14.50026
G1 X134.138 Y128.12 E14.53028
G1 X133.244 Y127.988 E14.56034
G1 X132.366 Y127.778 E14.59036
G1 X131.51 Y127.49 E14.6204
G1 X130.683 Y127.128 E14.65043
G1 X129.891 Y126.694 E14.68047
G1 X129.14 Y126.192 E14.71051
G1 X128.437 Y125.625 E14.74055
G1 X127.786 Y124.999 E14.77059
G1 X127.194 Y124.317 E14.80063
G1 X126.664 Y123.586 E14.83066
G1 X126.201 Y122.81 E14.86071
G1 X125.809 Y121.997 E14.89073
G1 X125.49 Y121.152 E14.92077
G1 X125.247 Y120.282 E14.95082
G1 X125.081 Y119.394 E14.98086
G1 X125.002 Y118.61 E15.00707
G1 X124.981 Y118.274 E15.01827
G1 X124.961 Y117.644 E15.03923
G1 X124.96 Y116.042 E15.09252
G1 X124.96 Y116.035 E15.09275
G1 X124.961 Y102.693 E15.53651
G1 X124.962 Y102.541 E15.54156
G1 X124.972 Y101.875 E15.56372
G1 X125.026 Y100.973 E15.59377
G1 X125.159 Y100.08 E15.6238
G1 X125.37 Y99.202 E15.65383
G1 X125.659 Y98.346 E15.68388
G1 X126.022 Y97.519 E15.71392
G1 X126.456 Y96.728 E15.74393
G1 X126.959 Y95.978 E15.77397
G1 F1500 E9.27397
;MESH:Case 4 v7.stl
G0 F6000 X134.495 Y102.432
G0 X135.575 Y102.432
G0 X136.343 Y116.801
G0 X146.667 Y116.786
G0 X147.423 Y116.6
;TYPE:WALL-INNER
G1 F1500 E15.77397
G1 F1200 X147.745 Y116.706 E15.78524
G1 X148.085 Y116.727 E15.79657
G1 X148.42 Y116.663 E15.80791
G1 X148.726 Y116.518 E15.81918
G1 X148.988 Y116.302 E15.83047
G1 X149.188 Y116.027 E15.84178
G1 X149.311 Y115.713 E15.853
G1 X149.355 Y115.375 E15.86433
G1 X149.311 Y115.037 E15.87567
G1 X149.188 Y114.723 E15.88689
G1 X148.988 Y114.448 E15.8982
G1 X148.726 Y114.232 E15.90949
G1 X148.42 Y114.087 E15.92075
G1 X148.085 Y114.023 E15.9321
G1 X147.745 Y114.044 E15.94343
G1 X147.423 Y114.15 E15.9547
G1 X147.137 Y114.331 E15.96596
G1 X146.904 Y114.579 E15.97728
G1 X146.741 Y114.877 E15.98857
G1 X146.656 Y115.205 E15.99984
G1 X146.656 Y115.545 E16.01115
G1 X146.741 Y115.873 E16.02242
G1 X146.904 Y116.171 E16.03372
G1 X147.137 Y116.419 E16.04504
G1 X147.423 Y116.6 E16.05629
G0 F6000 X147.595 Y116.236
;TYPE:WALL-OUTER
G1 F1200 X147.821 Y116.31 E16.0642
G1 X148.06 Y116.325 E16.07217
G1 X148.295 Y116.28 E16.08013
G1 X148.51 Y116.178 E16.08804
G1 X148.694 Y116.026 E16.09598
G1 X148.834 Y115.833 E16.10391
G1 X148.921 Y115.612 E16.11181
G1 X148.952 Y115.375 E16.11976
G1 X148.921 Y115.138 E16.12771
G1 X148.834 Y114.917 E16.13561
G1 X148.694 Y114.724 E16.14354
G1 X148.51 Y114.572 E16.15148
G1 X148.295 Y114.47 E16.15939
G1 X148.06 Y114.425 E16.16735
G1 X147.821 Y114.44 E16.17531
G1 X147.595 Y114.514 E16.18322
G1 X147.394 Y114.642 E16.19115
G1 X147.23 Y114.816 E16.1991
G1 X147.116 Y115.025 E16.20702
G1 X147.056 Y115.256 E16.21496
G1 X147.056 Y115.494 E16.22287
G1 X147.116 Y115.725 E16.23081
G1 X147.23 Y115.934 E16.23873
G1 X147.394 Y116.108 E16.24668
G1 X147.595 Y116.236 E16.25461
G0 F6000 X147.407 Y116.633
G1 F1500 E9.75461
G0 F6000 X146.667 Y116.786
G0 X139.299 Y116.773
G0 X139.485 Y115.641
G0 X139.299 Y115.417
;TYPE:WALL-INNER
G1 F1500 E16.25461
G1 F1200 X139.739 Y115.489 E16.26944
G1 X140.182 Y115.494 E16.28417
G1 X140.629 Y115.435 E16.29917
G1 X141.063 Y115.307 E16.31422
G1 X141.469 Y115.118 E16.32911
G1 X141.843 Y114.868 E16.34408
G1 X142.174 Y114.567 E16.35896
G1 X142.456 Y114.224 E16.37373
G1 X142.687 Y113.837 E16.38872
G1 X142.856 Y113.421 E16.40365
G1 X142.962 Y112.982 E16.41867
G1 X142.997 Y112.567 E16.43252
G1 X143 Y107.463 E16.60228
G1 X142.97 Y107.054 E16.61592
G1 X142.877 Y106.646 E16.62984
G1 X142.721 Y106.23 E16.64462
G1 X142.5 Y105.839 E16.65956
G1 X142.226 Y105.488 E16.67437
G1 X141.901 Y105.178 E16.68931
G1 X141.533 Y104.92 E16.70425
G1 X141.131 Y104.719 E16.7192
G1 X140.701 Y104.583 E16.7342
G1 X140.261 Y104.511 E16.74903
G1 X139.818 Y104.506 E16.76377
G1 X139.371 Y104.565 E16.77876
G1 X138.937 Y104.693 E16.79381
G1 X138.531 Y104.882 E16.80871
G1 X138.157 Y105.132 E16.82367
G1 X137.826 Y105.433 E16.83855
G1 X137.544 Y105.776 E16.85332
G1 X137.313 Y106.163 E16.86831
G1 X137.144 Y106.579 E16.88324
G1 X137.038 Y107.018 E16.89827
G1 X137.003 Y107.433 E16.91212
G1 X137 Y112.537 E17.08188
G1 X137.03 Y112.946 E17.09552
G1 X137.123 Y113.354 E17.10944
G1 X137.279 Y113.77 E17.12421
G1 X137.5 Y114.161 E17.13915
G1 X137.774 Y114.512 E17.15396
G1 X138.099 Y114.822 E17.1689
G1 X138.467 Y115.08 E17.18385
G1 X138.869 Y115.281 E17.1988
G1 X139.299 Y115.417 E17.2138
G0 F6000 X139.392 Y115.027
G1 F1200 X139.774 Y115.089 E17.22667
G1 X140.158 Y115.094 E17.23944
G1 X140.546 Y115.043 E17.25246
G1 X140.921 Y114.932 E17.26546
G1 X141.272 Y114.768 E17.27835
G1 X141.596 Y114.552 E17.2913
G1 X141.883 Y114.291 E17.3042
G1 X142.128 Y113.993 E17.31704
G1 X142.328 Y113.658 E17.33001
G1 X142.474 Y113.298 E17.34293
G1 X142.566 Y112.918 E17.35594
G1 X142.597 Y112.55 E17.36822
G1 X142.6 Y107.478 E17.53692
G1 X142.573 Y107.113 E17.54909
G1 X142.493 Y106.761 E17.56109
G1 X142.357 Y106.4 E17.57393
G1 X142.166 Y106.061 E17.58687
G1 X141.929 Y105.757 E17.59969
G1 X141.647 Y105.488 E17.61265
G1 X141.328 Y105.265 E17.6256
G1 X140.98 Y105.091 E17.63854
G1 X140.608 Y104.973 E17.65152
G1 X140.226 Y104.911 E17.66439
G1 X139.842 Y104.906 E17.67716
G1 X139.454 Y104.957 E17.69018
G1 X139.079 Y105.068 E17.70318
G1 X138.728 Y105.232 E17.71607
G1 X138.404 Y105.448 E17.72902
G1 X138.117 Y105.709 E17.74192
G1 X137.872 Y106.007 E17.75476
G1 X137.672 Y106.342 E17.76773
G1 X137.526 Y106.702 E17.78065
G1 X137.434 Y107.082 E17.79366
G1 X137.403 Y107.45 E17.80594
G1 X137.4 Y112.522 E17.97464
G1 X137.427 Y112.887 E17.98681
G1 X137.507 Y113.239 E17.99881
G1 X137.643 Y113.6 E18.01165
G1 X137.834 Y113.939 E18.02459
G1 X138.071 Y114.243 E18.03741
G1 X138.353 Y114.512 E18.05037
G1 X138.672 Y114.735 E18.06332
G1 X139.02 Y114.909 E18.07626
G1 X139.392 Y115.027 E18.08924
G0 F6000 X139.485 Y114.637
;TYPE:WALL-OUTER
G1 F1200 X139.809 Y114.689 E18.10015
G1 X140.135 Y114.694 E18.111
G1 X140.462 Y114.651 E18.12196
G1 X140.778 Y114.557 E18.13293
G1 X141.075 Y114.418 E18.14384
G1 X141.349 Y114.236 E18.15478
G1 X141.592 Y114.015 E18.1657
G1 X141.8 Y113.762 E18.1766
G1 X141.969 Y113.479 E18.18756
G1 X142.092 Y113.175 E18.19847
G1 X142.17 Y112.854 E18.20945
G1 X142.197 Y112.533 E18.22017
G1 X142.2 Y107.493 E18.3878
G1 X142.176 Y107.172 E18.3985
G1 X142.109 Y106.876 E18.4086
G1 X141.994 Y106.57 E18.41947
G1 X141.832 Y106.284 E18.4304
G1 X141.631 Y106.026 E18.44128
G1 X141.393 Y105.798 E18.45224
G1 X141.123 Y105.61 E18.46319
G1 X140.829 Y105.463 E18.47412
G1 X140.515 Y105.363 E18.48508
G1 X140.191 Y105.311 E18.49599
G1 X139.865 Y105.306 E18.50684
G1 X139.538 Y105.349 E18.51781
G1 X139.222 Y105.443 E18.52877
G1 X138.925 Y105.582 E18.53968
G1 X138.651 Y105.764 E18.55062
G1 X138.408 Y105.985 E18.56155
G1 X138.2 Y106.238 E18.57244
G1 X138.031 Y106.521 E18.5834
G1 X137.908 Y106.825 E18.59431
G1 X137.83 Y107.146 E18.6053
G1 X137.803 Y107.467 E18.61601
G1 X137.8 Y112.507 E18.78364
G1 X137.824 Y112.828 E18.79435
G1 X137.891 Y113.124 E18.80444
G1 X138.006 Y113.43 E18.81531
G1 X138.168 Y113.716 E18.82625
G1 X138.369 Y113.974 E18.83713
